; generated by Slic3r 1.1.7 on 2014-11-30 at 11:16:00

; perimeters extrusion width = 0.35mm
; infill extrusion width = 0.52mm
; solid infill extrusion width = 0.52mm
; top infill extrusion width = 0.52mm

G21 ; set units to millimeters
M107
M190 S60 ; wait for bed temperature to be reached
M104 S200 ; set temperature
G28 ; home all axes
G1 Z5 F5000 ; lift nozzle
M109 S200 ; wait for temperature to be reached
G90 ; use absolute coordinates
G92 E0
M82 ; use absolute distances for extrusion
M204 S1000
G1 F1500.000 E-1.40000
G92 E0
G1 Z0.300 F3600.000
G1 X96.113 Y137.760 F3600.000
G1 E1.40000 F1500.000
G1 X96.535 Y137.477 E1.43459 F1200.000
G1 X96.983 Y137.212 E1.47007
G1 X97.449 Y136.973 E1.50579
G1 X98.248 Y136.638 E1.56482
G1 X125.589 Y126.769 E3.54555
G1 X127.757 Y126.408 E3.69537
G1 X130.338 Y127.029 E3.87621
G1 X144.706 Y134.068 E4.96651 F1200.000
G1 X146.474 Y135.376 E5.11634
G1 X147.662 Y137.226 E5.26616
G1 X148.116 Y139.377 E5.41599
G1 X147.497 Y142.219 E5.61424
G1 X138.698 Y160.180 E6.97715
G1 X137.390 Y161.948 E7.12698
G1 X135.540 Y163.136 E7.27680
G1 X133.389 Y163.590 E7.42663
G1 X131.477 Y163.336 E7.55804
G1 X98.560 Y153.467 E9.89981
G1 X98.068 Y153.293 E9.93537
G1 X97.591 Y153.093 E9.97063
G1 X97.128 Y152.866 E10.00578
G1 X96.676 Y152.611 E10.04109
G1 X96.241 Y152.330 E10.07642
G1 X95.824 Y152.025 E10.11158
G1 X95.425 Y151.697 E10.14679
G1 X95.045 Y151.345 E10.18211
G1 X94.689 Y150.975 E10.21712
G1 X94.354 Y150.583 E10.25219
G1 X94.038 Y150.167 E10.28782
G1 X93.746 Y149.731 E10.32356
G1 X93.487 Y149.292 E10.35833
G1 X93.247 Y148.825 E10.39407
G1 X93.041 Y148.359 E10.42879
G1 X92.861 Y147.877 E10.46384
G1 X92.708 Y147.383 E10.49909
G1 X92.583 Y146.879 E10.53452
G1 X92.489 Y146.371 E10.56968
G1 X92.424 Y145.858 E10.60496
G1 X92.389 Y145.340 E10.64032
G1 X92.384 Y144.823 E10.67555
G1 X92.410 Y144.306 E10.71082
G1 X92.465 Y143.792 E10.74604
G1 X92.550 Y143.282 E10.78132
G1 X92.665 Y142.778 E10.81653
G1 X92.809 Y142.280 E10.85181
G1 X92.981 Y141.793 E10.88704
G1 X93.182 Y141.316 E10.92228
G1 X93.408 Y140.855 E10.95726
G1 X93.664 Y140.401 E10.99280
G1 X93.944 Y139.967 E11.02801
G1 X94.249 Y139.549 E11.06328
G1 X94.578 Y139.150 E11.09854
G1 X94.929 Y138.771 E11.13372
G1 X95.303 Y138.412 E11.16903
G1 X95.695 Y138.077 E11.20415
G1 X96.071 Y137.791 E11.23636
G1 X96.426 Y138.207 F3600.000
G1 X96.822 Y137.942 E11.26880 F1200.000
G1 X97.242 Y137.693 E11.30209
G1 X97.680 Y137.468 E11.33564
G1 X98.434 Y137.152 E11.39133
G1 X125.774 Y127.283 E13.37206
G1 X127.845 Y126.957 E13.51495
G1 X130.097 Y127.519 E13.67311
G1 X144.466 Y134.559 E14.76341 F1200.000
G1 X146.140 Y135.820 E14.90630
G1 X147.227 Y137.614 E15.04919
G1 X147.570 Y139.683 E15.19208
G1 X147.006 Y141.979 E15.35322
G1 X138.207 Y159.940 E16.71614
G1 X136.945 Y161.615 E16.85903
G1 X135.152 Y162.701 E17.00192
G1 X133.083 Y163.044 E17.14481
G1 X131.634 Y162.813 E17.24480
G1 X98.731 Y152.949 E19.58553
G1 X98.269 Y152.786 E19.61890
G1 X97.822 Y152.598 E19.65199
G1 X97.387 Y152.385 E19.68499
G1 X96.963 Y152.146 E19.71812
G1 X96.554 Y151.882 E19.75128
G1 X96.163 Y151.597 E19.78429
G1 X95.788 Y151.289 E19.81733
G1 X95.431 Y150.959 E19.85048
G1 X95.097 Y150.611 E19.88334
G1 X94.782 Y150.244 E19.91626
G1 X94.486 Y149.854 E19.94969
G1 X94.211 Y149.445 E19.98326
G1 X93.968 Y149.032 E20.01587
G1 X93.743 Y148.594 E20.04944
G1 X93.549 Y148.157 E20.08200
G1 X93.380 Y147.705 E20.11491
G1 X93.236 Y147.242 E20.14799
G1 X93.118 Y146.768 E20.18124
G1 X93.030 Y146.292 E20.21423
G1 X92.968 Y145.810 E20.24735
G1 X92.935 Y145.324 E20.28053
G1 X92.930 Y144.839 E20.31360
G1 X92.954 Y144.354 E20.34671
G1 X93.006 Y143.871 E20.37975
G1 X93.085 Y143.392 E20.41287
G1 X93.193 Y142.919 E20.44592
G1 X93.327 Y142.452 E20.47903
G1 X93.489 Y141.995 E20.51209
G1 X93.677 Y141.547 E20.54517
G1 X93.889 Y141.114 E20.57801
G1 X94.129 Y140.688 E20.61135
G1 X94.392 Y140.280 E20.64440
G1 X94.678 Y139.888 E20.67751
G1 X94.986 Y139.513 E20.71060
G1 X95.316 Y139.157 E20.74362
G1 X95.666 Y138.820 E20.77676
G1 X96.034 Y138.505 E20.80973
G1 X96.384 Y138.239 E20.83976
G1 X99.065 Y138.033 F2880.000 E19.50976
G1 F1500.000 E19.43976
G92 E0
G1 X134.912 Y142.647 F3600.000
G1 E1.40000 F1500.000
G1 X134.612 Y142.858 E1.42501 F672.000
G1 X134.291 Y143.035 E1.45000
G1 X133.952 Y143.176 E1.47499
G1 X133.600 Y143.277 E1.50000
G1 X133.072 Y143.354 E1.53630
G1 X132.689 Y143.356 E1.56244
G1 X132.324 Y143.317 E1.58745
G1 X131.966 Y143.237 E1.61244
G1 X131.619 Y143.118 E1.63744
G1 X131.143 Y142.878 E1.67375
G1 X130.828 Y142.660 E1.69990
G1 X130.552 Y142.418 E1.72490
G1 X130.304 Y142.147 E1.74989
G1 X130.002 Y141.708 E1.78620
G1 X129.830 Y141.365 E1.81235
G1 X129.704 Y141.021 E1.83735
G1 X129.617 Y140.664 E1.86234
G1 X129.570 Y140.301 E1.88734
G1 X129.564 Y139.934 E1.91234
G1 X129.598 Y139.569 E1.93733
G1 X129.673 Y139.210 E1.96233
G1 X129.787 Y138.861 E1.98732
G1 X130.021 Y138.382 E2.02364
G1 X130.235 Y138.063 E2.04978
G1 X130.473 Y137.784 E2.07478
G1 X130.740 Y137.533 E2.09978
G1 X131.189 Y137.216 E2.13724
G1 X131.515 Y137.048 E2.16224
G1 X131.858 Y136.917 E2.18724
G1 X132.213 Y136.825 E2.21223
G1 X132.576 Y136.773 E2.23723
G1 X133.109 Y136.770 E2.27353
G1 X133.490 Y136.821 E2.29970 F672.000
G1 X134.019 Y136.970 E2.33717
G1 X134.354 Y137.118 E2.36215
G1 X134.822 Y137.406 E2.39963
G1 X135.224 Y137.757 E2.43594
G1 X135.476 Y138.046 E2.46208
G1 X135.774 Y138.509 E2.49956
G1 X135.991 Y139.014 E2.53703
G1 X136.088 Y139.367 E2.56202
G1 X136.195 Y139.945 E2.60205
G1 X136.167 Y139.945 E2.60397
G1 X136.137 Y140.462 E2.63927
G1 X136.025 Y141.001 E2.67675
G1 X135.825 Y141.513 E2.71421
G1 X135.646 Y141.833 E2.73921
G1 X135.313 Y142.270 E2.77668
G1 X134.952 Y142.613 E2.81057
G1 X134.294 Y140.007 F2880.000 E1.48057
G1 F1500.000 E1.41057
G92 E0
G1 X133.095 Y136.421 F3600.000
G1 X136.271 Y137.663 F3600.000
G1 E1.40000 F1500.000
G1 X140.893 Y139.927 E1.75072 F960.000
G1 X132.839 Y156.367 E2.99825
G1 X127.955 Y153.975 E3.36881
G1 X128.551 Y153.612 E3.41637
G1 X128.828 Y153.369 E3.44146
G1 X129.063 Y153.085 E3.46657
G1 X129.250 Y152.768 E3.49165
G1 X129.324 Y152.599 E3.50422
G1 X129.433 Y152.247 E3.52932
G1 X129.485 Y151.883 E3.55441
G1 X129.479 Y151.514 E3.57951
G1 X129.416 Y151.152 E3.60459
G1 X129.296 Y150.803 E3.62970
G1 X129.124 Y150.478 E3.65480
G1 X128.903 Y150.183 E3.67988
G1 X128.638 Y149.927 E3.70499
G1 X128.492 Y149.815 E3.71756
G1 X128.175 Y149.628 E3.74264
G1 X128.006 Y149.553 E3.75520
G1 X127.654 Y149.445 E3.78030
G1 X127.290 Y149.393 E3.80539
G1 X126.921 Y149.399 E3.83050
G1 X126.559 Y149.462 E3.85558
G1 X126.210 Y149.581 E3.88068
G1 X125.885 Y149.754 E3.90578
G1 X125.590 Y149.975 E3.93087
G1 X125.334 Y150.239 E3.95598
G1 X125.222 Y150.386 E3.96854
G1 X125.035 Y150.703 E3.99362
G1 X124.899 Y151.045 E4.01874
G1 X124.819 Y151.404 E4.04382
G1 X124.796 Y151.772 E4.06891
G1 X124.874 Y152.465 E4.11647
G1 X119.991 Y150.073 E4.48704
G1 X128.045 Y133.633 E5.73456
G1 X132.666 Y135.897 E6.08524
G1 X132.611 Y136.219 E6.10755
G1 X132.316 Y136.253 E6.12772
G1 X131.897 Y136.337 E6.15686
G1 X131.292 Y136.549 E6.20055
G1 X130.731 Y136.858 E6.24421
G1 X130.229 Y137.256 E6.28788
G1 X129.800 Y137.733 E6.33156
G1 X129.544 Y138.115 E6.36288
G1 X129.278 Y138.662 E6.40437
G1 X129.096 Y139.277 E6.44803
G1 X129.018 Y139.913 E6.49170
G1 X129.047 Y140.553 E6.53539
G1 X129.181 Y141.179 E6.57905
G1 X129.418 Y141.775 E6.62274
G1 X129.750 Y142.323 E6.66640
G1 X130.169 Y142.808 E6.71008
G1 X130.663 Y143.217 E6.75377
G1 X131.217 Y143.538 E6.79742
G1 X131.818 Y143.763 E6.84110
G1 X132.267 Y143.860 E6.87241
G1 X132.874 Y143.908 E6.91392
G1 X133.512 Y143.852 E6.95759
G1 X134.133 Y143.691 E7.00127
G1 X134.718 Y143.430 E7.04495
G1 X135.252 Y143.075 E7.08863
G1 X135.719 Y142.636 E7.13228
G1 X136.107 Y142.126 E7.17597
G1 X136.405 Y141.559 E7.21964
G1 X136.604 Y140.950 E7.26330
G1 X136.685 Y140.491 E7.29503
G1 X136.853 Y140.491 E7.30643
G1 X136.622 Y139.253 E7.39230
G1 X136.509 Y138.840 E7.42143
G1 X136.351 Y138.443 E7.45056
G1 X136.051 Y137.911 E7.49220
G1 X136.236 Y137.702 E7.51126
G1 X141.624 Y139.677 F3600.000
G1 X133.089 Y157.098 E8.83325 F672.000
G1 X126.337 Y153.791 E9.34561
G1 X126.476 Y153.419 E9.37260
G1 X126.889 Y153.517 E9.40152
G1 X127.312 Y153.527 E9.43036
G1 X127.725 Y153.438 E9.45920
G1 X127.985 Y153.326 E9.47844
G1 X128.223 Y153.175 E9.49770
G1 X128.529 Y152.883 E9.52654
G1 X128.692 Y152.652 E9.54579
G1 X128.816 Y152.398 E9.56504
G1 X128.924 Y151.989 E9.59387
G1 X128.942 Y151.707 E9.61312
G1 X128.886 Y151.288 E9.64196
G1 X128.794 Y151.020 E9.66121
G1 X128.662 Y150.771 E9.68046
G1 X128.479 Y150.530 E9.70104
G1 X128.177 Y150.262 E9.72855
G1 X127.934 Y150.119 E9.74779
G1 X127.535 Y149.978 E9.77663
G1 X127.255 Y149.938 E9.79588
G1 X126.973 Y149.943 E9.81513
G1 X126.559 Y150.032 E9.84397
G1 X126.178 Y150.215 E9.87281
G1 X125.952 Y150.385 E9.89205
G1 X125.755 Y150.588 E9.91131
G1 X125.593 Y150.819 E9.93056
G1 X125.422 Y151.206 E9.95940
G1 X125.360 Y151.481 E9.97864
G1 X125.342 Y151.763 E9.99789
G1 X125.369 Y152.045 E10.01714
G1 X125.439 Y152.318 E10.03639
G1 X125.622 Y152.700 E10.06523
G1 X125.889 Y153.028 E10.09407
G1 X126.220 Y153.294 E10.12299
G1 X126.012 Y153.631 E10.14998
G1 X119.260 Y150.323 E10.66234
G1 X127.795 Y132.902 E11.98432
G1 X141.577 Y139.654 E13.03016
G1 X141.334 Y139.872 F3600.000
G1 X140.320 Y140.065 F3600.000
G1 X140.378 Y140.123 E13.03581 F1320.000
G1 X140.122 Y140.647 E13.07552
G1 X138.791 Y139.316 E13.20375
G1 X137.263 Y138.567 F3600.000
G1 X139.865 Y141.170 E13.45457 F1320.000
G1 X139.609 Y141.693 E13.49428
G1 X136.953 Y139.038 E13.75020
G1 X137.146 Y140.009 E13.81771
G1 X139.353 Y142.217 E14.03040
G1 X139.096 Y142.740 E14.07011
G1 X137.224 Y140.867 E14.25056
G1 X136.883 Y141.306 E14.28842
G1 X138.840 Y143.263 E14.47700
G1 X138.584 Y143.786 E14.51671
G1 X136.666 Y141.869 E14.70147
G1 X136.391 Y142.373 E14.74062
G1 X138.327 Y144.310 E14.92721
G1 X138.071 Y144.833 E14.96691
G1 X136.054 Y142.816 E15.16125
G1 X135.663 Y143.205 E15.19881
G1 X137.815 Y145.356 E15.40616
G1 X137.558 Y145.879 E15.44586
G1 X135.224 Y143.545 E15.67082
G1 X134.734 Y143.835 E15.70961
G1 X137.302 Y146.403 E15.95708
G1 X137.046 Y146.926 E15.99679
G1 X134.186 Y144.066 E16.27238
G1 X133.565 Y144.225 E16.31605
G1 X136.789 Y147.449 E16.62676
G1 X136.533 Y147.972 E16.66647
G1 X132.843 Y144.282 E17.02209
G1 X131.959 Y144.179 E17.08269
G1 X136.276 Y148.496 E17.49872
G1 X136.020 Y149.019 E17.53842
G1 X130.639 Y143.638 E18.05697
G1 X129.289 Y142.288 F3600.000
G1 X125.889 Y138.888 E18.38467 F1320.000
G1 X126.145 Y138.365 E18.42438
G1 X128.752 Y140.971 E18.67554
G1 X128.649 Y140.089 E18.73605
G1 X126.402 Y137.841 E18.95264
G1 X126.658 Y137.318 E18.99235
G1 X128.706 Y139.366 E19.18970
G1 X128.862 Y138.742 E19.23349
G1 X126.914 Y136.795 E19.42118
G1 X127.171 Y136.272 E19.46089
G1 X129.089 Y138.190 E19.64580
G1 X129.373 Y137.694 E19.68473
G1 X127.427 Y135.748 E19.87226
G1 X127.683 Y135.225 E19.91196
G1 X129.719 Y137.260 E20.10811
G1 X130.109 Y136.871 E20.14568
G1 X127.940 Y134.702 E20.35474
G1 X128.203 Y134.186 E20.39423
G1 X130.548 Y136.530 E20.62015
G1 X131.050 Y136.253 E20.65926
G1 X129.621 Y134.823 E20.79701
G1 X131.149 Y135.572 F3600.000
G1 X131.615 Y136.038 E20.84186 F1320.000
G1 X125.633 Y139.411 F3600.000
G1 X135.764 Y149.542 E21.81819 F1320.000
G1 X135.507 Y150.066 E21.85790
G1 X125.376 Y139.934 E22.83423
G1 X125.120 Y140.458 E22.87394
G1 X135.251 Y150.589 E23.85027
G1 X134.995 Y151.112 E23.88998
G1 X124.864 Y140.981 E24.86631
G1 X124.607 Y141.504 E24.90602
G1 X134.738 Y151.635 E25.88235
G1 X134.482 Y152.159 E25.92206
G1 X124.351 Y142.028 E26.89839
G1 X124.095 Y142.551 E26.93810
G1 X134.226 Y152.682 E27.91443
G1 X133.969 Y153.205 E27.95414
G1 X123.838 Y143.074 E28.93047
G1 X123.582 Y143.597 E28.97018
G1 X133.713 Y153.728 E29.94651
G1 X133.457 Y154.252 E29.98622
G1 X123.325 Y144.121 E30.96255
G1 X123.069 Y144.644 E31.00226
G1 X127.463 Y149.038 E31.42568
G1 X126.701 Y149.055 E31.47761
G1 X122.813 Y145.167 E31.85231
G1 X122.556 Y145.690 E31.89201
G1 X126.091 Y149.225 E32.23260
G1 X125.590 Y149.504 E32.27164
G1 X122.300 Y146.214 E32.58874
G1 X122.044 Y146.737 E32.62845
G1 X125.172 Y149.865 E32.92995
G1 X124.833 Y150.305 E32.96782
G1 X121.787 Y147.260 E33.26129
G1 X121.531 Y147.783 E33.30099
G1 X124.579 Y150.832 E33.59473
G1 X124.438 Y151.470 E33.63928
G1 X121.275 Y148.307 E33.94411
G1 X121.018 Y148.830 E33.98381
G1 X123.621 Y151.433 E34.23463
G1 X122.093 Y150.684 F3600.000
G1 X120.762 Y149.353 E34.36287 F1320.000
G1 X120.506 Y149.877 E34.40258
G1 X120.564 Y149.935 E34.40822
G1 X120.506 Y149.877 F2880.000 E34.36721
G1 X120.762 Y149.353 F2880.000 E34.07890
G1 X122.093 Y150.684 F2880.000 E33.14779
G1 F1500.000 E33.00822
G92 E0
G1 X129.013 Y153.706 F3600.000
G1 E1.40000 F1500.000
G1 X129.735 Y154.428 E1.46953 F1320.000
G1 X129.377 Y153.291 E1.55073
G1 X131.263 Y155.177 E1.73244
G1 X132.680 Y155.814 F3600.000
G1 X129.653 Y152.787 E2.02423 F1320.000
G1 X129.823 Y152.177 E2.06736
G1 X132.944 Y155.298 E2.36816
G1 X133.200 Y154.775 E2.40786
G1 X129.844 Y151.419 E2.73131
G1 X131.745 Y153.319 F2880.000 E1.40131
G1 F1500.000 E1.33131
G92 E0
G1 X135.434 Y137.224 F3600.000
G1 E1.40000 F1500.000
G1 X134.932 Y136.916 E1.42285 F240.000
G1 X134.554 Y136.714 E1.43946
G1 X133.991 Y136.462 E1.46334
G1 X133.526 Y136.293 E1.48251
M204 S1000
G1 X133.991 Y136.462 F2880.000 E1.23779
G1 X134.554 Y136.714 F2880.000 E0.93291
G1 X134.932 Y136.916 F2880.000 E0.72085
G1 X135.434 Y137.224 F2880.000 E0.42913
G1 F1500.000 E0.08251
G92 E0
G1 X102.521 Y144.628 F3600.000
G1 E1.40000 F1500.000
G1 X102.575 Y145.000 E1.42561 F672.000
G1 X102.521 Y145.372 E1.45121
G1 X102.362 Y145.713 E1.47682
G1 X102.205 Y145.908 E1.49392
G1 X102.013 Y146.070 E1.51103
G1 X101.676 Y146.237 E1.53664
G1 X101.431 Y146.291 E1.55375
G1 X101.202 Y146.297 E1.56935
G1 X101.056 Y146.282 E1.57940
G1 X100.813 Y146.216 E1.59650
G1 X100.485 Y146.033 E1.62212
G1 X100.222 Y145.764 E1.64773
G1 X100.095 Y145.548 E1.66483
G1 X100.012 Y145.311 E1.68193
G1 X99.976 Y144.937 E1.70754
G1 X100.048 Y144.568 E1.73315
G1 X100.154 Y144.341 E1.75025
G1 X100.301 Y144.138 E1.76735
G1 X100.588 Y143.895 E1.79296
G1 X100.933 Y143.745 E1.81857
G1 X101.180 Y143.703 E1.83568
G1 X101.409 Y143.708 E1.85128
G1 X101.555 Y143.730 E1.86133 F672.000
G1 X101.794 Y143.808 E1.87844
G1 X102.113 Y144.006 E1.90405
G1 X102.362 Y144.287 E1.92965
G1 X102.503 Y144.579 E1.95170
G1 X101.374 Y143.564 F3600.000
G1 X103.679 Y144.318 F3600.000
G1 X103.757 Y144.710 E1.97894 F672.000
G1 X103.770 Y145.145 E2.00863
G1 X103.736 Y145.434 E2.02844
G1 X103.624 Y145.855 E2.05813
G1 X103.439 Y146.250 E2.08782
G1 X103.190 Y146.607 E2.11752
G1 X102.990 Y146.818 E2.13733
G1 X102.648 Y147.089 E2.16703
G1 X102.265 Y147.295 E2.19673
G1 X101.851 Y147.432 E2.22642
G1 X101.420 Y147.496 E2.25612
G1 X101.129 Y147.496 E2.27593
G1 X100.698 Y147.432 E2.30562
G1 X100.284 Y147.295 E2.33531
G1 X99.901 Y147.089 E2.36500
G1 X99.668 Y146.915 E2.38481
G1 X99.359 Y146.607 E2.41451
G1 X99.110 Y146.250 E2.44419
G1 X98.979 Y145.990 E2.46401
G1 X98.842 Y145.577 E2.49370
G1 X98.779 Y145.145 E2.52340
G1 X98.779 Y144.855 E2.54321
G1 X98.842 Y144.424 E2.57290
G1 X98.979 Y144.010 E2.60259
G1 X99.109 Y143.750 E2.62240
G1 X99.359 Y143.393 E2.65210
G1 X99.559 Y143.182 E2.67191
G1 X99.901 Y142.911 E2.70161
G1 X100.284 Y142.705 E2.73130
G1 X100.698 Y142.568 E2.76099
G1 X100.984 Y142.517 E2.78080
G1 X101.420 Y142.504 E2.81050
G1 X101.851 Y142.568 E2.84020 F672.000
G1 X102.129 Y142.651 E2.85999
G1 X102.396 Y142.766 E2.87981
G1 X102.767 Y142.995 E2.90950
G1 X102.990 Y143.182 E2.92931
G1 X103.280 Y143.507 E2.95901
G1 X103.508 Y143.878 E2.98871
G1 X103.664 Y144.267 E3.01728
G1 X101.755 Y142.605 F3600.000
G1 X103.099 Y144.472 F3600.000
G1 X103.171 Y144.890 E3.06145 F240.000
G1 X103.171 Y145.110 E3.08446
G1 X103.145 Y145.330 E3.10749
G1 X103.040 Y145.702 E3.14780
G1 X102.862 Y146.044 E3.18798
G1 X102.730 Y146.221 E3.21100
G1 X102.578 Y146.381 E3.23403
G1 X102.409 Y146.523 E3.25705
G1 X102.224 Y146.645 E3.28007
G1 X101.876 Y146.802 E3.31984
G1 X101.495 Y146.887 E3.36056
G1 X101.275 Y146.900 E3.38357
