; generated by Slic3r 1.1.7 on 2014-11-30 at 09:30:35

; perimeters extrusion width = 0.35mm
; infill extrusion width = 0.52mm
; solid infill extrusion width = 0.52mm
; top infill extrusion width = 0.52mm

G21 ; set units to millimeters
M107
M190 S60 ; wait for bed temperature to be reached
M104 S200 ; set temperature
G28 ; home all axes
G1 Z5 F5000 ; lift nozzle
M109 S200 ; wait for temperature to be reached
G90 ; use absolute coordinates
G92 E0
M82 ; use absolute distances for extrusion
M204 S1000
G1 F1500.000 E-1.40000
G92 E0
G1 Z0.300 F3600.000
G1 X117.583 Y108.417 F3600.000
G1 E1.40000 F1500.000
G1 X119.540 Y107.415 E1.54983 F1200.000
G1 X121.292 Y107.157 E1.67050
G1 X151.292 Y107.157 E3.71481
G1 X153.454 Y107.554 E3.86464
G1 X155.335 Y108.693 E4.01446 F1200.000
G1 X156.690 Y110.425 E4.16429
G1 X157.385 Y113.250 E4.36256
G1 X157.385 Y143.250 E6.40688
G1 X156.605 Y146.233 E6.61695
G1 X143.902 Y168.848 E8.38451
G1 X143.622 Y169.284 E8.41979
G1 X143.317 Y169.701 E8.45502
G1 X142.988 Y170.100 E8.49024
G1 X142.637 Y170.480 E8.52552
G1 X142.264 Y170.838 E8.56078
G1 X141.865 Y171.178 E8.59647
G1 X141.460 Y171.486 E8.63112
G1 X141.032 Y171.773 E8.66627
G1 X140.583 Y172.038 E8.70176
G1 X140.125 Y172.273 E8.73687
G1 X139.654 Y172.482 E8.77195
G1 X139.166 Y172.664 E8.80745
G1 X104.766 Y182.604 E11.24752
G1 X102.578 Y182.822 E11.39734
G1 X100.396 Y182.221 E11.55157
G1 X86.028 Y175.182 E12.64187
G1 X84.260 Y173.874 E12.79170
G1 X83.072 Y172.024 E12.94152
G1 X82.618 Y169.873 E13.09135
G1 X83.237 Y167.030 E13.28961
G1 X91.948 Y149.249 E14.63892
G1 X92.324 Y148.548 E14.69309
G1 X116.108 Y110.048 E17.77691
G1 X117.547 Y108.456 E17.92315
G1 X117.992 Y108.793 F3600.000
G1 X119.884 Y107.885 E18.06615 F1200.000
G1 X121.292 Y107.704 E18.16290
G1 X151.292 Y107.704 E20.20721
G1 X153.351 Y108.100 E20.35010
G1 X155.116 Y109.233 E20.49299 F1200.000
G1 X156.334 Y110.939 E20.63588
G1 X156.838 Y113.250 E20.79705
G1 X156.838 Y143.250 E22.84136
G1 X156.128 Y145.965 E23.03259
G1 X143.437 Y168.562 E24.79863
G1 X143.174 Y168.970 E24.83174
G1 X142.888 Y169.362 E24.86480
G1 X142.580 Y169.737 E24.89786
G1 X142.250 Y170.093 E24.93097
G1 X141.900 Y170.430 E24.96406
G1 X141.526 Y170.750 E24.99759
G1 X141.147 Y171.038 E25.03008
G1 X140.745 Y171.308 E25.06308
G1 X140.324 Y171.557 E25.09638
G1 X139.886 Y171.782 E25.12993
G1 X139.452 Y171.974 E25.16227
G1 X138.995 Y172.146 E25.19558
G1 X104.614 Y182.079 E27.63419
G1 X102.526 Y182.269 E27.77708
G1 X100.636 Y181.731 E27.91097
G1 X86.268 Y174.691 E29.00127
G1 X84.593 Y173.430 E29.14416
G1 X83.507 Y171.636 E29.28706
G1 X83.164 Y169.567 E29.42995
G1 X83.727 Y167.271 E29.59111
G1 X92.439 Y149.489 E30.94041
G1 X92.789 Y148.835 E30.99094
G1 X116.573 Y110.335 E34.07475
G1 X117.956 Y108.831 E34.21396
G1 X120.644 Y108.860 F2880.000 E32.88396
G1 F1500.000 E32.81396
G92 E0
G1 X104.762 Y161.897 F3600.000
G1 E1.40000 F1500.000
G1 X104.462 Y162.108 E1.42501 F672.000
G1 X104.141 Y162.285 E1.45000
G1 X103.802 Y162.426 E1.47499
G1 X103.450 Y162.527 E1.50000
G1 X102.922 Y162.604 E1.53630
G1 X102.539 Y162.607 E1.56244
G1 X102.174 Y162.567 E1.58746
G1 X101.816 Y162.487 E1.61244
G1 X101.469 Y162.368 E1.63744
G1 X100.993 Y162.128 E1.67375
G1 X100.678 Y161.910 E1.69990
G1 X100.402 Y161.668 E1.72490
G1 X100.154 Y161.397 E1.74989
G1 X99.852 Y160.958 E1.78620
G1 X99.680 Y160.615 E1.81235
G1 X99.554 Y160.271 E1.83735
G1 X99.467 Y159.914 E1.86234
G1 X99.420 Y159.551 E1.88734
G1 X99.414 Y159.184 E1.91234
G1 X99.448 Y158.819 E1.93733
G1 X99.529 Y158.367 E1.96862
G1 X99.546 Y158.367 E1.96972
G1 X99.709 Y157.942 E2.00072
G1 X99.879 Y157.617 E2.02573
G1 X100.085 Y157.313 E2.05072
G1 X100.441 Y156.917 E2.08703
G1 X100.734 Y156.669 E2.11318
G1 X101.039 Y156.466 E2.13817
G1 X101.365 Y156.298 E2.16316
G1 X101.708 Y156.167 E2.18816
G1 X102.063 Y156.075 E2.21316
G1 X102.426 Y156.023 E2.23816
G1 X102.959 Y156.021 E2.27448
G1 X103.340 Y156.071 E2.30063 F672.000
G1 X103.869 Y156.220 E2.33810
G1 X104.366 Y156.455 E2.37555
G1 X104.672 Y156.657 E2.40056
G1 X104.955 Y156.891 E2.42555
G1 X105.326 Y157.297 E2.46301
G1 X105.624 Y157.759 E2.50049
G1 X105.841 Y158.264 E2.53796
G1 X105.938 Y158.618 E2.56295
G1 X106.045 Y159.195 E2.60298
G1 X106.017 Y159.195 E2.60490
G1 X105.987 Y159.712 E2.64020
G1 X105.875 Y160.251 E2.67768
G1 X105.675 Y160.763 E2.71514
G1 X105.496 Y161.083 E2.74014
G1 X105.163 Y161.520 E2.77761
G1 X104.802 Y161.863 E2.81150
G1 X104.144 Y159.257 F2880.000 E1.48150
G1 F1500.000 E1.41150
G92 E0
G1 X102.946 Y155.671 F3600.000
G1 X106.121 Y156.913 F3600.000
G1 E1.40000 F1500.000
G1 X110.743 Y159.177 E1.75072 F960.000
G1 X102.689 Y175.618 E2.99825
G1 X97.805 Y173.225 E3.36881
G1 X98.401 Y172.862 E3.41637
G1 X98.678 Y172.618 E3.44148
G1 X98.912 Y172.335 E3.46656
G1 X99.012 Y172.180 E3.47912
G1 X99.174 Y171.849 E3.50422
G1 X99.283 Y171.497 E3.52932
G1 X99.335 Y171.133 E3.55440
G1 X99.329 Y170.764 E3.57951
G1 X99.266 Y170.402 E3.60459
G1 X99.146 Y170.053 E3.62971
G1 X98.974 Y169.728 E3.65478
G1 X98.843 Y169.544 E3.67014
G1 X98.625 Y169.300 E3.69246
G1 X98.342 Y169.065 E3.71756
G1 X98.024 Y168.877 E3.74266
G1 X97.682 Y168.742 E3.76772
G1 X97.323 Y168.662 E3.79283
G1 X96.955 Y168.639 E3.81793
G1 X96.589 Y168.673 E3.84301
G1 X96.408 Y168.712 E3.85561
G1 X96.060 Y168.831 E3.88070
G1 X95.735 Y169.004 E3.90577
G1 X95.440 Y169.225 E3.93088
G1 X95.184 Y169.489 E3.95597
G1 X94.972 Y169.791 E3.98106
G1 X94.885 Y169.953 E3.99362
G1 X94.749 Y170.295 E4.01870
G1 X94.669 Y170.655 E4.04381
G1 X94.645 Y171.022 E4.06891
G1 X94.724 Y171.715 E4.11646
G1 X89.841 Y169.323 E4.48703
G1 X97.895 Y152.883 E5.73456
G1 X102.516 Y155.147 E6.08523
G1 X102.461 Y155.469 E6.10754
G1 X101.955 Y155.539 E6.14229
G1 X101.340 Y155.717 E6.18595
G1 X100.922 Y155.907 E6.21725
G1 X100.406 Y156.232 E6.25877
G1 X100.079 Y156.506 E6.28789
G1 X99.784 Y156.816 E6.31704
G1 X99.410 Y157.337 E6.36069
G1 X99.160 Y157.820 E6.39781
G1 X99.072 Y157.820 E6.40378
G1 X98.908 Y158.737 E6.46726
G1 X98.865 Y159.377 E6.51093
G1 X98.930 Y160.015 E6.55460
G1 X99.031 Y160.430 E6.58372
G1 X99.178 Y160.832 E6.61288
G1 X99.479 Y161.397 E6.65653
G1 X99.871 Y161.905 E6.70022
G1 X100.176 Y162.204 E6.72935
G1 X100.513 Y162.467 E6.75849
G1 X101.067 Y162.788 E6.80214
G1 X101.668 Y163.013 E6.84583
G1 X102.117 Y163.111 E6.87714
G1 X102.724 Y163.158 E6.91865
G1 X103.362 Y163.102 E6.96232
G1 X103.983 Y162.942 E7.00599
G1 X104.568 Y162.680 E7.04968
G1 X105.102 Y162.325 E7.09336
G1 X105.569 Y161.886 E7.13700
G1 X105.957 Y161.376 E7.18070
G1 X106.255 Y160.809 E7.22436
G1 X106.454 Y160.200 E7.26803
G1 X106.535 Y159.741 E7.29975
G1 X106.703 Y159.741 E7.31116
G1 X106.472 Y158.503 E7.39702
G1 X106.359 Y158.090 E7.42615
G1 X106.201 Y157.693 E7.45529
G1 X105.901 Y157.161 E7.49693
G1 X106.086 Y156.952 E7.51599
G1 X111.474 Y158.927 F3600.000
G1 X102.939 Y176.349 E8.83798 F672.000
G1 X96.187 Y173.041 E9.35033
G1 X96.326 Y172.670 E9.37732
G1 X96.739 Y172.768 E9.40624
G1 X97.162 Y172.778 E9.43507
G1 X97.440 Y172.729 E9.45433
G1 X97.834 Y172.576 E9.48315
G1 X98.073 Y172.425 E9.50242
G1 X98.285 Y172.238 E9.52167
G1 X98.542 Y171.902 E9.55050
G1 X98.666 Y171.648 E9.56975
G1 X98.749 Y171.378 E9.58901
G1 X98.792 Y170.957 E9.61784
G1 X98.736 Y170.538 E9.64667
G1 X98.644 Y170.270 E9.66593
G1 X98.432 Y169.904 E9.69476
G1 X98.245 Y169.692 E9.71402
G1 X98.027 Y169.512 E9.73327
G1 X97.784 Y169.369 E9.75252
G1 X97.385 Y169.228 E9.78135
G1 X97.105 Y169.189 E9.80059
G1 X96.823 Y169.193 E9.81985
G1 X96.544 Y169.242 E9.83911
G1 X96.277 Y169.333 E9.85836
G1 X95.911 Y169.546 E9.88719
G1 X95.605 Y169.838 E9.91603
G1 X95.443 Y170.069 E9.93528
G1 X95.272 Y170.456 E9.96411
G1 X95.210 Y170.732 E9.98336
G1 X95.192 Y171.014 E10.00261
G1 X95.219 Y171.295 E10.02187
G1 X95.296 Y171.587 E10.04244
G1 X95.472 Y171.950 E10.06994
G1 X95.739 Y172.278 E10.09879
G1 X96.070 Y172.544 E10.12770
G1 X95.862 Y172.881 E10.15469
G1 X89.110 Y169.573 E10.66704
G1 X97.645 Y152.152 E11.98903
G1 X111.427 Y158.904 E13.03486
G1 X111.184 Y159.122 F3600.000
G1 X110.170 Y159.315 F3600.000
G1 X110.228 Y159.374 E13.04051 F1320.000
G1 X109.972 Y159.897 E13.08022
G1 X108.641 Y158.566 E13.20845
G1 X107.113 Y157.817 F3600.000
G1 X109.715 Y160.420 E13.45928 F1320.000
G1 X109.459 Y160.943 E13.49898
G1 X106.803 Y158.288 E13.75491
G1 X106.996 Y159.260 E13.82242
G1 X109.203 Y161.467 E14.03511
G1 X108.946 Y161.990 E14.07481
G1 X107.074 Y160.117 E14.25526
G1 X106.733 Y160.556 E14.29312
G1 X108.690 Y162.513 E14.48170
G1 X108.434 Y163.036 E14.52141
G1 X106.516 Y161.119 E14.70617
G1 X106.241 Y161.624 E14.74533
G1 X108.177 Y163.560 E14.93191
G1 X107.921 Y164.083 E14.97162
G1 X105.904 Y162.066 E15.16595
G1 X105.513 Y162.455 E15.20351
G1 X107.665 Y164.606 E15.41086
G1 X107.408 Y165.129 E15.45057
G1 X105.074 Y162.795 E15.67552
G1 X104.584 Y163.085 E15.71431
G1 X107.152 Y165.653 E15.96178
G1 X106.896 Y166.176 E16.00149
G1 X104.036 Y163.316 E16.27708
G1 X103.415 Y163.475 E16.32075
G1 X106.639 Y166.699 E16.63146
G1 X106.383 Y167.223 E16.67117
G1 X102.693 Y163.532 E17.02679
G1 X101.809 Y163.429 E17.08739
G1 X106.126 Y167.746 E17.50341
G1 X105.870 Y168.269 E17.54312
G1 X100.489 Y162.888 E18.06166
G1 X99.117 Y161.516 F3600.000
G1 X95.739 Y158.138 E18.38717 F1320.000
G1 X95.483 Y158.661 E18.42688
G1 X105.614 Y168.792 E19.40321
G1 X105.357 Y169.316 E19.44292
G1 X95.226 Y159.185 E20.41925
G1 X94.970 Y159.708 E20.45895
G1 X105.101 Y169.839 E21.43529
G1 X104.845 Y170.362 E21.47499
G1 X94.714 Y160.231 E22.45133
G1 X94.457 Y160.754 E22.49103
G1 X104.588 Y170.885 E23.46737
G1 X104.332 Y171.409 E23.50707
G1 X94.201 Y161.278 E24.48340
G1 X93.945 Y161.801 E24.52311
G1 X104.076 Y171.932 E25.49944
G1 X103.819 Y172.455 E25.53915
G1 X93.688 Y162.324 E26.51548
G1 X93.432 Y162.847 E26.55519
G1 X103.563 Y172.979 E27.53152
G1 X103.307 Y173.502 E27.57123
G1 X93.175 Y163.371 E28.54756
G1 X92.919 Y163.894 E28.58727
G1 X97.309 Y168.284 E29.01033
G1 X96.545 Y168.300 E29.06241
G1 X92.663 Y164.417 E29.43655
G1 X92.406 Y164.940 E29.47626
G1 X95.941 Y168.475 E29.81685
G1 X95.440 Y168.754 E29.85589
G1 X92.150 Y165.464 E30.17299
G1 X91.894 Y165.987 E30.21269
G1 X95.022 Y169.116 E30.51419
G1 X94.680 Y169.553 E30.55203
G1 X91.637 Y166.510 E30.84522
G1 X91.381 Y167.034 E30.88492
G1 X94.429 Y170.082 E31.17866
G1 X94.288 Y170.720 E31.22321
G1 X91.125 Y167.557 E31.52804
G1 X90.868 Y168.080 E31.56774
G1 X93.471 Y170.683 E31.81856
G1 X91.943 Y169.934 F3600.000
G1 X90.612 Y168.603 E31.94680 F1320.000
G1 X90.356 Y169.127 E31.98651
G1 X90.414 Y169.185 E31.99215
G1 X90.356 Y169.127 F2880.000 E31.95114
G1 X90.612 Y168.603 F2880.000 E31.66283
G1 X91.943 Y169.934 F2880.000 E30.73172
G1 F1500.000 E30.59215
G92 E0
G1 X98.863 Y172.956 F3600.000
G1 E1.40000 F1500.000
G1 X99.585 Y173.678 E1.46953 F1320.000
G1 X99.227 Y172.541 E1.55076
G1 X101.113 Y174.427 E1.73250
G1 X102.530 Y175.065 F3600.000
G1 X99.502 Y172.036 E2.02437 F1320.000
G1 X99.673 Y171.427 E2.06746
G1 X102.794 Y174.548 E2.36826
G1 X103.050 Y174.025 E2.40796
G1 X99.694 Y170.669 E2.73141
G1 X98.590 Y160.210 F3600.000
G1 X95.995 Y157.615 E2.98148 F1320.000
G1 X96.252 Y157.091 E3.02119
G1 X98.492 Y159.331 E3.23704
G1 X98.549 Y158.609 E3.28642
G1 X96.508 Y156.568 E3.48309
G1 X96.764 Y156.045 E3.52280
G1 X98.667 Y157.948 E3.70619
G1 X98.935 Y157.436 E3.74555
G1 X97.021 Y155.522 E3.93006
G1 X97.277 Y154.998 E3.96976
G1 X99.226 Y156.948 E4.15761
G1 X99.562 Y156.504 E4.19554
G1 X97.533 Y154.475 E4.39103
G1 X97.790 Y153.952 E4.43073
G1 X99.956 Y156.118 E4.63951
G1 X100.405 Y155.788 E4.67751
G1 X98.053 Y153.436 E4.90418
G1 X99.471 Y154.073 F3600.000
G1 X100.901 Y155.503 E5.04198 F1320.000
G1 X101.466 Y155.289 E5.08318
G1 X100.999 Y154.822 E5.12819
G1 X103.376 Y155.543 F3600.000
G1 X103.841 Y155.712 E5.14735 F240.000
G1 X104.403 Y155.964 E5.17123
G1 X104.782 Y156.166 E5.18784
G1 X105.284 Y156.474 E5.21069
M204 S1000
G1 X104.782 Y156.166 F2880.000 E4.91900
G1 X104.403 Y155.964 F2880.000 E4.70691
G1 X103.841 Y155.712 F2880.000 E4.40206
G1 X103.376 Y155.543 F2880.000 E4.15735
G1 F1500.000 E3.81069
G92 E0
G1 X135.029 Y163.939 F3600.000
G1 E1.40000 F1500.000
G1 X135.113 Y163.702 E1.41711 F672.000
G1 X135.228 Y163.504 E1.43271
G1 X135.318 Y163.388 E1.44277
G1 X135.502 Y163.217 E1.45988
G1 X135.715 Y163.084 E1.47697
G1 X135.950 Y162.995 E1.49409
G1 X136.198 Y162.953 E1.51120
G1 X136.427 Y162.958 E1.52679
G1 X136.572 Y162.980 E1.53684 F672.000
G1 X136.811 Y163.058 E1.55395
G1 X137.130 Y163.256 E1.57957
G1 X137.380 Y163.538 E1.60517
G1 X137.538 Y163.878 E1.63077
G1 X137.592 Y164.250 E1.65638
G1 X137.538 Y164.622 E1.68198
G1 X137.380 Y164.963 E1.70759
G1 X137.222 Y165.158 E1.72470
G1 X137.031 Y165.320 E1.74180
G1 X136.694 Y165.487 E1.76741
G1 X136.323 Y165.550 E1.79301
G1 X135.950 Y165.505 E1.81863
G1 X135.606 Y165.355 E1.84424
G1 X135.319 Y165.112 E1.86983
G1 X135.113 Y164.798 E1.89544
G1 X135.005 Y164.438 E1.92105
G1 X134.993 Y164.187 E1.93815
G1 X135.019 Y163.990 E1.95168
G1 X136.483 Y162.821 F3600.000
G1 X133.871 Y163.629 F3600.000
G1 X133.996 Y163.260 E1.97821 F672.000
G1 X134.203 Y162.876 E2.00790
G1 X134.473 Y162.535 E2.03760
G1 X134.799 Y162.245 E2.06730
G1 X135.170 Y162.016 E2.09699
G1 X135.575 Y161.855 E2.12667
G1 X136.001 Y161.767 E2.15637
G1 X136.437 Y161.754 E2.18608
G1 X136.868 Y161.818 E2.21577 F672.000
G1 X137.282 Y161.955 E2.24545
G1 X137.542 Y162.085 E2.26526
G1 X137.899 Y162.335 E2.29496
G1 X138.110 Y162.535 E2.31478
G1 X138.380 Y162.876 E2.34447
G1 X138.587 Y163.260 E2.37416
G1 X138.687 Y163.533 E2.39397
G1 X138.775 Y163.960 E2.42366
G1 X138.792 Y164.250 E2.44347
G1 X138.775 Y164.540 E2.46328
G1 X138.687 Y164.967 E2.49297
G1 X138.526 Y165.372 E2.52268
G1 X138.380 Y165.624 E2.54248
G1 X138.110 Y165.966 E2.57218
G1 X137.785 Y166.255 E2.60187
G1 X137.414 Y166.484 E2.63157
G1 X137.009 Y166.645 E2.66125
G1 X136.726 Y166.712 E2.68106
G1 X136.292 Y166.750 E2.71075
G1 X136.002 Y166.733 E2.73058
G1 X135.575 Y166.645 E2.76027
G1 X135.170 Y166.484 E2.78997
G1 X134.918 Y166.339 E2.80976
G1 X134.576 Y166.068 E2.83946
G1 X134.377 Y165.857 E2.85928
G1 X134.127 Y165.500 E2.88896
G1 X133.996 Y165.240 E2.90878
G1 X133.859 Y164.827 E2.93848
G1 X133.809 Y164.540 E2.95827
G1 X133.796 Y164.105 E2.98798
G1 X133.858 Y163.679 E3.01726
G1 X136.654 Y162.029 F3600.000
G1 X134.451 Y163.780 F3600.000
G1 X134.576 Y163.435 E3.05550 F240.000
G1 X134.764 Y163.121 E3.09373
G1 X134.988 Y162.868 E3.12889
G1 X135.303 Y162.628 E3.17016
G1 X135.633 Y162.468 E3.20839
G1 X135.962 Y162.379 E3.24389
G1 X136.323 Y162.351 E3.28160
G1 X136.717 Y162.398 E3.32302
G1 X137.044 Y162.505 E3.35891
G1 X137.358 Y162.678 E3.39626
G1 X137.662 Y162.934 E3.43771
G1 X137.879 Y163.206 E3.47394
G1 X138.045 Y163.519 E3.51084
G1 X138.153 Y163.870 E3.54911
G1 X138.192 Y164.250 E3.58894
G1 X138.163 Y164.580 E3.62346
G1 X138.057 Y164.952 E3.66377
G1 X137.890 Y165.278 E3.70194
G1 X137.674 Y165.554 E3.73847
G1 X137.426 Y165.774 E3.77297
G1 X137.065 Y165.986 E3.81665
G1 X136.730 Y166.099 E3.85346
G1 X136.402 Y166.146 E3.88798
G1 X136.071 Y166.136 E3.92248
G1 X135.747 Y166.070 E3.95698
G1 X135.439 Y165.948 E3.99150
G1 X135.126 Y165.750 E4.03012
G1 X134.837 Y165.471 E4.07199
G1 X134.646 Y165.200 E4.10648
G1 X134.495 Y164.866 E4.14476
G1 X134.410 Y164.509 E4.18298
G1 X134.395 Y164.143 E4.22120
G1 X134.439 Y163.831 E4.25396 F240.000
M204 S1000
G1 X134.439 Y163.831 F2880.000
G1 F1500.000 E2.85396
G92 E0
G1 X127.638 Y118.017 F3600.000
G1 E1.40000 F1500.000
G1 X127.250 Y118.050 E1.42654 F672.000
G1 X126.863 Y117.998 E1.45314
G1 X126.473 Y117.853 E1.48151
G1 X126.166 Y117.654 E1.50643
G1 X125.988 Y117.490 E1.52291
G1 X125.751 Y117.181 E1.54947
G1 X125.586 Y116.826 E1.57612
G1 X125.502 Y116.444 E1.60277
G1 X125.502 Y116.056 E1.62923
G1 X125.586 Y115.674 E1.65588
G1 X125.764 Y115.298 E1.68419
G1 X126.004 Y114.992 E1.71075
G1 X126.303 Y114.745 E1.73714
G1 X126.652 Y114.568 E1.76379
G1 X127.055 Y114.466 E1.79215
G1 X127.420 Y114.455 E1.81699
G1 X127.638 Y114.483 E1.83200 F672.000
G1 X128.010 Y114.599 E1.85858
G1 X128.349 Y114.794 E1.88521
G1 X128.519 Y114.933 E1.90017
G1 X128.774 Y115.228 E1.92669
G1 X128.959 Y115.570 E1.95321
G1 X129.029 Y115.779 E1.96823
