; generated by Slic3r 1.1.7 on 2014-11-30 at 17:14:15

; perimeters extrusion width = 0.35mm
; infill extrusion width = 0.52mm
; solid infill extrusion width = 0.52mm
; top infill extrusion width = 0.52mm
; support material extrusion width = 0.35mm

G21 ; set units to millimeters
M107
M190 S60 ; wait for bed temperature to be reached
M104 S200 ; set temperature
G28 ; home all axes
G1 Z5 F5000 ; lift nozzle
M109 S200 ; wait for temperature to be reached
G90 ; use absolute coordinates
G92 E0
M82 ; use absolute distances for extrusion
M204 S1000
G1 F1500.000 E-1.40000
G92 E0
G1 Z0.300 F3600.000
G1 X94.431 Y125.562 F3600.000
G1 E1.40000 F1500.000
G1 X96.416 Y124.617 E1.54983 F1200.000
G1 X97.848 Y124.409 E1.64839
G1 X130.755 Y123.587 E3.89156
G1 X132.321 Y123.587 E3.99828
G1 X133.664 Y123.613 E4.08976
G1 X142.559 Y124.433 E4.69850 F1200.000
G1 X144.676 Y125.027 E4.84833
G1 X146.445 Y126.333 E4.99815
G1 X147.634 Y128.182 E5.14798
G1 X148.093 Y130.500 E5.30900
G1 X148.093 Y159.500 E7.28517
G1 X147.696 Y161.663 E7.43499
G1 X146.557 Y163.544 E7.58482
G1 X144.825 Y164.898 E7.73464
G1 X142.000 Y165.593 E7.93292
G1 X98.000 Y165.593 E10.93124
G1 X95.837 Y165.196 E11.08107
G1 X93.956 Y164.057 E11.23089
G1 X92.602 Y162.325 E11.38072
G1 X91.965 Y160.338 E11.52292
G1 X91.200 Y154.727 E11.90884
G1 X91.087 Y152.927 E12.03172
G1 X91.087 Y134.180 E13.30920
G1 X91.233 Y132.855 E13.40004
G1 X92.053 Y129.175 E13.65698
G1 X92.911 Y127.150 E13.80680
G1 X94.395 Y125.600 E13.95305
G1 X94.834 Y125.969 F3600.000
G1 X94.910 Y125.894 E13.96033 F1200.000
G1 X97.861 Y124.955 E14.17134
G1 X130.755 Y124.134 E16.41358
G1 X132.321 Y124.134 E16.52029
G1 X133.614 Y124.157 E16.60836
G1 X142.509 Y124.977 E17.21710 F1200.000
G1 X144.523 Y125.561 E17.35999
G1 X146.177 Y126.851 E17.50288
G1 X147.233 Y128.662 E17.64578
G1 X147.546 Y130.500 E17.77284
G1 X147.546 Y159.500 E19.74901
G1 X147.150 Y161.559 E19.89190
G1 X146.017 Y163.324 E20.03479
G1 X144.311 Y164.542 E20.17768
G1 X142.000 Y165.046 E20.33884
G1 X98.000 Y165.046 E23.33717
G1 X95.941 Y164.650 E23.48006
G1 X94.176 Y163.517 E23.62295
G1 X92.958 Y161.811 E23.76585
G1 X92.506 Y160.263 E23.87570
G1 X91.745 Y154.688 E24.25912
G1 X91.634 Y152.927 E24.37936
G1 X91.634 Y134.180 E25.65685
G1 X91.766 Y132.974 E25.73954
G1 X92.586 Y129.294 E25.99648
G1 X93.421 Y127.370 E26.13937
G1 X94.797 Y126.006 E26.27140
G1 X97.485 Y125.948 F2880.000 E24.94140
G1 F1500.000 E24.87140
G92 E0
G1 X130.315 Y156.346 F3600.000
G1 E1.40000 F1500.000
G1 X107.154 Y156.346 E2.97831 F960.000
G1 X107.154 Y133.654 E4.52468
G1 X130.315 Y133.654 E6.10299
G1 X130.315 Y156.294 E7.64578
G1 X129.769 Y155.800 F3600.000
G1 X107.700 Y155.800 E9.14963 F672.000
G1 X107.700 Y134.200 E10.62153
G1 X129.769 Y134.200 E12.12539
G1 X129.769 Y155.748 E13.59371
G1 X129.769 Y156.150 F3600.000
G1 X133.685 Y156.346 F3600.000
G1 X141.154 Y156.346 E14.10267 F960.000
G1 X141.154 Y158.654 E14.25989
G1 X98.846 Y158.654 E17.14287
G1 X98.846 Y131.346 E19.00369
G1 X141.154 Y131.346 E21.88667
G1 X141.154 Y133.654 E22.04390
G1 X133.685 Y133.654 E22.55285
G1 X133.685 Y156.294 E24.09564
G1 X134.231 Y155.800 F3600.000
G1 X141.700 Y155.800 E24.60459 F672.000
G1 X141.700 Y159.200 E24.83628
G1 X98.300 Y159.200 E27.79372
G1 X98.300 Y130.800 E29.72900
G1 X141.700 Y130.800 E32.68644
G1 X141.700 Y134.200 E32.91813
G1 X134.231 Y134.200 E33.42708
G1 X134.231 Y155.748 E34.89541
G1 X134.231 Y156.150 F3600.000
G1 X133.309 Y155.990 F3600.000
G1 X130.691 Y153.372 E35.14765 F1200.000
G1 X130.691 Y152.599 E35.20033
G1 X133.309 Y155.216 E35.45258
G1 X133.309 Y154.443 E35.50526
G1 X130.691 Y151.826 E35.75751
G1 X130.691 Y151.053 E35.81019
G1 X133.309 Y153.670 E36.06243
G1 X133.309 Y152.897 E36.11511
G1 X130.691 Y150.280 E36.36736
G1 X130.691 Y149.507 E36.42004
G1 X133.309 Y152.124 E36.67229
G1 X133.309 Y151.351 E36.72497
G1 X130.691 Y148.734 E36.97721
G1 X130.691 Y147.961 E37.02989
G1 X133.309 Y150.578 E37.28214
G1 X133.309 Y149.805 E37.33482
G1 X130.691 Y147.187 E37.58707
G1 X130.691 Y146.414 E37.63975
G1 X133.309 Y149.032 E37.89199
G1 X133.309 Y148.259 E37.94467
G1 X130.691 Y145.641 E38.19692
G1 X130.691 Y144.868 E38.24960
G1 X133.309 Y147.486 E38.50185
G1 X133.309 Y146.713 E38.55453
G1 X130.691 Y144.095 E38.80677
G1 X130.691 Y143.322 E38.85945
G1 X133.309 Y145.940 E39.11170
G1 X133.309 Y145.167 E39.16438
G1 X130.691 Y142.549 E39.41663
G1 X130.691 Y141.776 E39.46931
G1 X133.309 Y144.393 E39.72155
G1 X133.309 Y143.620 E39.77423
G1 X130.691 Y141.003 E40.02648
G1 X130.691 Y140.230 E40.07916
G1 X133.309 Y142.847 E40.33141
G1 X133.309 Y142.074 E40.38409
G1 X130.691 Y139.457 E40.63633
G1 X130.691 Y138.684 E40.68901
G1 X133.309 Y141.301 E40.94126
G1 X133.309 Y140.528 E40.99394
G1 X130.691 Y137.911 E41.24619
G1 X130.691 Y137.138 E41.29887
G1 X133.309 Y139.755 E41.55111
G1 X133.309 Y138.982 E41.60379
G1 X130.691 Y136.364 E41.85604
G1 X130.691 Y135.591 E41.90872
G1 X133.309 Y138.209 E42.16097
G1 X133.309 Y137.436 E42.21365
G1 X130.691 Y134.818 E42.46589
G1 X130.691 Y134.045 E42.51857
G1 X133.309 Y136.663 E42.77082
G1 X131.408 Y134.762 F2880.000 E41.44082
G1 F1500.000 E41.37082
G92 E0
G1 X140.738 Y131.722 F3600.000
G1 E1.40000 F1500.000
G1 X140.778 Y131.762 E1.40385 F1200.000
G1 X140.778 Y132.536 E1.45653
G1 X139.964 Y131.722 E1.53489
G1 X139.191 Y131.722 E1.58757
G1 X140.747 Y133.278 E1.73744
G1 X139.973 Y133.278 E1.79012
G1 X138.418 Y131.722 E1.93999
G1 X137.645 Y131.722 E1.99267
G1 X139.200 Y133.278 E2.14253
G1 X138.427 Y133.278 E2.19521
G1 X136.872 Y131.722 E2.34508
G1 X136.099 Y131.722 E2.39776
G1 X137.654 Y133.278 E2.54763
G1 X136.881 Y133.278 E2.60031
G1 X135.326 Y131.722 E2.75018
G1 X134.553 Y131.722 E2.80286
G1 X136.108 Y133.278 E2.95273
G1 X135.335 Y133.278 E3.00541
G1 X133.780 Y131.722 E3.15527
G1 X133.007 Y131.722 E3.20795
G1 X134.562 Y133.278 E3.35782
G1 X133.789 Y133.278 E3.41050
G1 X132.234 Y131.722 E3.56037
G1 X131.461 Y131.722 E3.61305
G1 X133.309 Y133.570 E3.79114
G1 X133.309 Y134.344 E3.84382
G1 X130.688 Y131.722 E4.09642
G1 X129.915 Y131.722 E4.14910
G1 X133.309 Y135.117 E4.47620
G1 X133.309 Y135.890 E4.52888
G1 X129.141 Y131.722 E4.93047
G1 X128.368 Y131.722 E4.98315
G1 X129.924 Y133.278 E5.13302
G1 X129.150 Y133.278 E5.18570
G1 X127.595 Y131.722 E5.33557
G1 X126.822 Y131.722 E5.38825
G1 X128.377 Y133.278 E5.53812
G1 X127.604 Y133.278 E5.59080
G1 X126.049 Y131.722 E5.74066
G1 X125.276 Y131.722 E5.79334
G1 X126.831 Y133.278 E5.94321
G1 X126.058 Y133.278 E5.99589
G1 X124.503 Y131.722 E6.14576
G1 X123.730 Y131.722 E6.19844
G1 X125.285 Y133.278 E6.34831
G1 X124.512 Y133.278 E6.40099
G1 X122.957 Y131.722 E6.55086
G1 X122.184 Y131.722 E6.60354
G1 X123.739 Y133.278 E6.75340
G1 X122.966 Y133.278 E6.80608
G1 X121.411 Y131.722 E6.95595
G1 X120.638 Y131.722 E7.00863
G1 X122.193 Y133.278 E7.15850
G1 X121.420 Y133.278 E7.21118
G1 X119.865 Y131.722 E7.36105
G1 X119.092 Y131.722 E7.41373
G1 X120.647 Y133.278 E7.56360
G1 X119.874 Y133.278 E7.61628
G1 X118.319 Y131.722 E7.76614
G1 X117.545 Y131.722 E7.81882
G1 X119.101 Y133.278 E7.96869
G1 X118.327 Y133.278 E8.02137
G1 X116.772 Y131.722 E8.17124
G1 X115.999 Y131.722 E8.22392
G1 X117.554 Y133.278 E8.37379
G1 X116.781 Y133.278 E8.42647
G1 X115.226 Y131.722 E8.57634
G1 X114.453 Y131.722 E8.62902
G1 X116.008 Y133.278 E8.77888
G1 X115.235 Y133.278 E8.83156
G1 X113.680 Y131.722 E8.98143
G1 X112.907 Y131.722 E9.03411
G1 X114.462 Y133.278 E9.18398
G1 X113.689 Y133.278 E9.23666
G1 X112.134 Y131.722 E9.38653
G1 X111.361 Y131.722 E9.43921
G1 X112.916 Y133.278 E9.58908
G1 X112.143 Y133.278 E9.64176
G1 X110.588 Y131.722 E9.79163
G1 X109.815 Y131.722 E9.84431
G1 X111.370 Y133.278 E9.99417
G1 X110.597 Y133.278 E10.04685
G1 X109.042 Y131.722 E10.19672
G1 X108.269 Y131.722 E10.24940
G1 X109.824 Y133.278 E10.39927
G1 X109.051 Y133.278 E10.45195
G1 X107.496 Y131.722 E10.60182
G1 X106.722 Y131.722 E10.65450
G1 X108.278 Y133.278 E10.80437
G1 X107.504 Y133.278 E10.85705
G1 X105.949 Y131.722 E11.00691
G1 X105.176 Y131.722 E11.05959
G1 X106.778 Y133.324 E11.21391
G1 X106.778 Y134.097 E11.26659
G1 X104.403 Y131.722 E11.49540
G1 X103.630 Y131.722 E11.54808
G1 X106.778 Y134.870 E11.85140
G1 X106.778 Y135.643 E11.90408
G1 X102.857 Y131.722 E12.28190
G1 X102.084 Y131.722 E12.33458
G1 X106.778 Y136.416 E12.78690
G1 X106.778 Y137.189 E12.83958
G1 X101.311 Y131.722 E13.36639
G1 X100.538 Y131.722 E13.41907
G1 X106.778 Y137.962 E14.02039
G1 X106.778 Y138.735 E14.07307
G1 X99.765 Y131.722 E14.74889
G1 X99.222 Y131.953 E14.78906
G1 X106.778 Y139.508 E15.51714
G1 X106.778 Y140.281 E15.56982
G1 X99.222 Y132.726 E16.29791
G1 X99.222 Y133.499 E16.35059
G1 X106.778 Y141.054 E17.07868
G1 X106.778 Y141.827 E17.13136
G1 X99.222 Y134.272 E17.85944
G1 X99.222 Y135.045 E17.91212
G1 X106.778 Y142.601 E18.64021
G1 X106.778 Y143.374 E18.69289
G1 X99.222 Y135.819 E19.42098
G1 X99.222 Y136.592 E19.47366
G1 X106.778 Y144.147 E20.20174
G1 X106.778 Y144.920 E20.25442
G1 X99.222 Y137.365 E20.98251
G1 X99.222 Y138.138 E21.03519
G1 X106.778 Y145.693 E21.76328
G1 X106.778 Y146.466 E21.81596
G1 X99.222 Y138.911 E22.54404
G1 X99.222 Y139.684 E22.59672
G1 X106.778 Y147.239 E23.32481
G1 X106.778 Y148.012 E23.37749
G1 X99.222 Y140.457 E24.10558
G1 X99.222 Y141.230 E24.15826
G1 X106.778 Y148.785 E24.88634
G1 X106.778 Y149.558 E24.93902
G1 X99.222 Y142.003 E25.66711
G1 X99.222 Y142.776 E25.71979
G1 X106.778 Y150.331 E26.44788
G1 X106.778 Y151.104 E26.50056
G1 X99.222 Y143.549 E27.22864
G1 X99.222 Y144.322 E27.28132
G1 X106.778 Y151.877 E28.00941
G1 X106.778 Y152.650 E28.06209
G1 X99.222 Y145.095 E28.79018
G1 X99.222 Y145.868 E28.84286
G1 X106.778 Y153.424 E29.57094
G1 X106.778 Y154.197 E29.62362
G1 X99.222 Y146.642 E30.35171
G1 X99.222 Y147.415 E30.40439
G1 X106.778 Y154.970 E31.13248
G1 X106.778 Y155.743 E31.18516
G1 X99.222 Y148.188 E31.91324
G1 X99.222 Y148.961 E31.96592
G1 X108.539 Y158.278 E32.86379
G1 X109.312 Y158.278 E32.91647
G1 X107.757 Y156.722 E33.06633
G1 X108.530 Y156.722 E33.11901
G1 X110.085 Y158.278 E33.26888
G1 X110.859 Y158.278 E33.32156
G1 X109.303 Y156.722 E33.47143
G1 X110.076 Y156.722 E33.52411
G1 X111.632 Y158.278 E33.67398
G1 X112.405 Y158.278 E33.72666
G1 X110.850 Y156.722 E33.87653
G1 X111.623 Y156.722 E33.92921
G1 X113.178 Y158.278 E34.07907
G1 X113.951 Y158.278 E34.13175
G1 X112.396 Y156.722 E34.28162
G1 X113.169 Y156.722 E34.33430
G1 X114.724 Y158.278 E34.48417
G1 X115.497 Y158.278 E34.53685
G1 X113.942 Y156.722 E34.68672
G1 X114.715 Y156.722 E34.73940
G1 X116.270 Y158.278 E34.88927
G1 X117.043 Y158.278 E34.94195
G1 X115.488 Y156.722 E35.09181
G1 X116.261 Y156.722 E35.14449
G1 X117.816 Y158.278 E35.29436
G1 X118.589 Y158.278 E35.34704
G1 X117.034 Y156.722 E35.49691
G1 X117.807 Y156.722 E35.54959
G1 X119.362 Y158.278 E35.69946
G1 X120.135 Y158.278 E35.75214
G1 X118.580 Y156.722 E35.90201
G1 X119.353 Y156.722 E35.95469
G1 X120.908 Y158.278 E36.10455
G1 X121.682 Y158.278 E36.15723
G1 X120.126 Y156.722 E36.30710
G1 X120.899 Y156.722 E36.35978
G1 X122.455 Y158.278 E36.50965
G1 X123.228 Y158.278 E36.56233
G1 X121.673 Y156.722 E36.71220
G1 X122.446 Y156.722 E36.76488
G1 X124.001 Y158.278 E36.91475
G1 X124.774 Y158.278 E36.96743
G1 X123.219 Y156.722 E37.11729
G1 X123.992 Y156.722 E37.16997
G1 X125.547 Y158.278 E37.31984
G1 X126.320 Y158.278 E37.37252
G1 X124.765 Y156.722 E37.52239
G1 X125.538 Y156.722 E37.57507
G1 X127.093 Y158.278 E37.72494
G1 X127.866 Y158.278 E37.77762
G1 X126.311 Y156.722 E37.92749
G1 X127.084 Y156.722 E37.98017
G1 X128.639 Y158.278 E38.13003
G1 X129.412 Y158.278 E38.18271
G1 X127.857 Y156.722 E38.33258
G1 X128.630 Y156.722 E38.38526
G1 X130.185 Y158.278 E38.53513
G1 X130.958 Y158.278 E38.58781
G1 X129.403 Y156.722 E38.73768
G1 X130.176 Y156.722 E38.79036
G1 X131.731 Y158.278 E38.94023
G1 X132.504 Y158.278 E38.99291
G1 X130.691 Y156.464 E39.16765
G1 X130.691 Y155.691 E39.22033
G1 X133.278 Y158.278 E39.46957
G1 X134.051 Y158.278 E39.52225
G1 X130.691 Y154.918 E39.84599
G1 X130.691 Y154.145 E39.89867
G1 X134.824 Y158.278 E40.29692
G1 X135.597 Y158.278 E40.34960
G1 X134.042 Y156.722 E40.49946
G1 X134.815 Y156.722 E40.55214
G1 X136.370 Y158.278 E40.70201
G1 X137.143 Y158.278 E40.75469
G1 X135.588 Y156.722 E40.90456
G1 X136.361 Y156.722 E40.95724
G1 X137.916 Y158.278 E41.10711
G1 X138.689 Y158.278 E41.15979
G1 X137.134 Y156.722 E41.30966
G1 X137.907 Y156.722 E41.36234
G1 X139.462 Y158.278 E41.51221
G1 X140.235 Y158.278 E41.56489
G1 X138.680 Y156.722 E41.71475
G1 X139.453 Y156.722 E41.76743
G1 X140.778 Y158.047 E41.89507
G1 X140.778 Y157.274 E41.94775
G1 X140.226 Y156.722 E42.00088
G1 X107.766 Y158.278 F3600.000
G1 X99.222 Y149.734 E42.82424 F1200.000
G1 X99.222 Y150.507 E42.87692
G1 X106.993 Y158.278 E43.62579
G1 X106.220 Y158.278 E43.67847
G1 X99.222 Y151.280 E44.35283
G1 X99.222 Y152.053 E44.40551
G1 X105.447 Y158.278 E45.00537
G1 X104.674 Y158.278 E45.05805
G1 X99.222 Y152.826 E45.58341
G1 X99.222 Y153.599 E45.63609
G1 X103.901 Y158.278 E46.08695
G1 X103.128 Y158.278 E46.13963
G1 X99.222 Y154.372 E46.51598
G1 X99.222 Y155.145 E46.56866
G1 X102.355 Y158.278 E46.87052
G1 X101.582 Y158.278 E46.92320
G1 X99.222 Y155.918 E47.15056
G1 X99.222 Y156.691 E47.20324
G1 X100.809 Y158.278 E47.35610
G1 X100.036 Y158.278 E47.40877
G1 X99.222 Y157.464 E47.48713
G1 X99.222 Y158.238 E47.53981
G1 X99.262 Y158.278 E47.54367
M204 S1000
G1 X99.222 Y158.238 F2880.000 E47.51568
G1 X99.222 Y157.464 F2880.000 E47.13317
G1 X100.036 Y158.278 F2880.000 E46.56423
G1 X100.744 Y158.278 F2880.000 E46.21366
G1 F1500.000 E46.14367
G92 E0
G1 X97.495 Y153.861 F3600.000
G1 E1.40000 F1500.000
G1 X97.277 Y154.296 E1.42123 F1200.000
G1 X97.180 Y152.927 E1.48112
G1 X97.495 Y152.299 E1.51180
G1 X97.180 Y151.365 E1.55482
G1 X97.495 Y150.736 E1.58551
G1 X97.180 Y149.803 E1.62853
G1 X97.495 Y149.174 E1.65922
G1 X97.180 Y149.803 F2880.000 E1.31138
G1 X97.495 Y150.736 F2880.000 E0.82378
G1 X97.180 Y151.365 F2880.000 E0.47594
G1 X97.275 Y151.646 F2880.000 E0.32922
G1 F1500.000 E0.25922
G92 E0
G1 X108.505 Y144.392 F3600.000
G1 E1.40000 F1500.000
G1 X108.561 Y144.280 E1.40545 F1200.000
G1 X109.344 Y144.280 E1.43963
G1 X108.505 Y145.954 E1.52137
G1 X109.445 Y145.641 E1.56461
G1 X108.505 Y147.516 E1.65618
G1 X108.505 Y149.078 E1.72438
G1 X109.636 Y146.822 E1.83457
G1 X110.055 Y147.548 E1.87116
G1 X108.505 Y150.641 E2.02218
G1 X108.505 Y152.203 E2.09038
G1 X110.474 Y148.274 E2.28224
G1 X110.893 Y149.000 E2.31883
G1 X108.505 Y153.765 E2.55153
G1 X108.672 Y154.995 E2.60571
G1 X111.313 Y149.726 E2.86301
G1 X111.732 Y150.452 E2.89960
G1 X109.455 Y154.995 E3.12145
G1 X110.238 Y154.995 E3.15563
G1 X112.151 Y151.178 E3.34203
G1 X110.946 Y153.581 F2880.000 E2.01203
G1 F1500.000 E1.94203
G92 E0
G1 X113.064 Y135.295 F3600.000
G1 E1.40000 F1500.000
G1 X113.210 Y135.005 E1.41416 F1200.000
G1 X113.847 Y135.295 E1.44474
G1 X113.993 Y135.005 E1.45890
G1 X114.630 Y135.295 E1.48948
G1 X114.776 Y135.005 E1.50364
G1 X115.413 Y135.295 E1.53422
G1 X115.539 Y135.044 E1.54648
G1 X115.413 Y135.295 F2880.000 E1.40751
G1 X114.776 Y135.005 F2880.000 E1.06091
G1 X114.630 Y135.295 F2880.000 E0.90042
G1 X113.993 Y135.005 F2880.000 E0.55382
G1 X113.847 Y135.295 F2880.000 E0.39333
G1 X113.522 Y135.147 F2880.000 E0.21648
G1 F1500.000 E0.14648
G92 E0
G1 X111.644 Y135.005 F3600.000
G1 E1.40000 F1500.000
G1 X108.505 Y141.267 E1.70578 F1200.000
G1 X108.505 Y139.705 E1.77398
G1 X110.861 Y135.005 E2.00348
G1 X110.078 Y135.005 E2.03766
G1 X108.505 Y138.143 E2.19087
G1 X108.505 Y136.580 E2.25907
G1 X109.295 Y135.005 E2.33600
G1 X108.505 Y136.580 F2880.000 E1.46405
G1 X108.505 Y137.506 F2880.000 E1.00600
G1 F1500.000 E0.93600
G92 E0
G1 X97.495 Y136.676 F3600.000
G1 E1.40000 F1500.000
G1 X97.180 Y137.305 E1.43069 F1200.000
G1 X97.180 Y135.743 E1.49889
G1 X97.495 Y135.114 E1.52958
G1 X97.180 Y134.180 E1.57260
G1 X97.356 Y133.830 E1.58970
G1 X97.180 Y134.180 F2880.000 E1.39582
G1 X97.495 Y135.114 F2880.000 E0.90823
G1 X97.180 Y135.743 F2880.000 E0.56039
G1 X97.180 Y136.350 F2880.000 E0.25970
G1 F1500.000 E0.18970
G92 E0
G1 X130.598 Y129.995 F3600.000
G1 E1.40000 F1500.000
G1 X130.755 Y129.680 E1.41538 F1200.000
G1 X131.381 Y129.995 E1.44594
