; generated by Slic3r 1.1.7 on 2014-12-18 at 17:06:49

; perimeters extrusion width = 0.35mm
; infill extrusion width = 0.52mm
; solid infill extrusion width = 0.52mm
; top infill extrusion width = 0.52mm

G21 ; set units to millimeters
M107
M190 S60 ; wait for bed temperature to be reached
M104 S200 ; set temperature
G28 ; home all axes
G1 Z5 F5000 ; lift nozzle
M109 S200 ; wait for temperature to be reached
G90 ; use absolute coordinates
G92 E0
M82 ; use absolute distances for extrusion
M204 S750
G1 F1320.000 E-1.20000
G92 E0
G1 Z0.350 F3600.000
G1 X101.167 Y119.425 F3600.000
G1 E1.20000 F1320.000
G1 X103.574 Y117.645 E1.48843 F900.000
G1 X106.365 Y116.563 E1.77685
G1 X109.000 Y116.250 E2.03258
G1 X131.000 Y116.250 E4.15243
G1 X133.967 Y116.648 E4.44086
G1 X136.723 Y117.815 E4.72928 F900.000
G1 X139.075 Y119.667 E5.01771
G1 X140.855 Y122.074 E5.30613
G1 X141.937 Y124.865 E5.59456
G1 X142.250 Y127.500 E5.85028
G1 X142.250 Y137.500 E6.81385
G1 X141.852 Y140.467 E7.10228
G1 X140.685 Y143.223 E7.39070
G1 X138.833 Y145.575 E7.67913
G1 X136.705 Y147.196 E7.93684
G1 X128.203 Y152.197 E8.88738
G1 X125.443 Y153.358 E9.17581
G1 X122.500 Y153.750 E9.46194
G1 X117.500 Y153.750 E9.94372
G1 X114.533 Y153.352 E10.23215
G1 X111.797 Y152.197 E10.51828
G1 X103.295 Y147.196 E11.46878
G1 X100.940 Y145.348 E11.75720
G1 X99.156 Y142.945 E12.04563
G1 X98.068 Y140.156 E12.33405
G1 X97.750 Y137.500 E12.59181
G1 X97.750 Y127.500 E13.55538
G1 X98.148 Y124.533 E13.84380
G1 X99.315 Y121.777 E14.13223
G1 X101.135 Y119.466 E14.41560
G1 X101.638 Y119.879 F3600.000
G1 X101.781 Y119.704 E14.43741 F900.000
G1 X104.166 Y118.038 E14.71767
G1 X106.913 Y117.082 E14.99793
G1 X109.000 Y116.875 E15.20003
G1 X131.000 Y116.875 E17.31988
G1 X133.881 Y117.273 E17.60015
G1 X136.547 Y118.438 E17.88041 F900.000
G1 X138.796 Y120.281 E18.16067
G1 X140.462 Y122.666 E18.44094
G1 X141.418 Y125.413 E18.72120
G1 X141.625 Y127.500 E18.92330
G1 X141.625 Y137.500 E19.88687
G1 X141.227 Y140.381 E20.16713
G1 X140.062 Y143.047 E20.44739
G1 X138.219 Y145.296 E20.72766
G1 X136.389 Y146.657 E20.94741
G1 X127.886 Y151.659 E21.89794
G1 X125.200 Y152.776 E22.17820
G1 X122.500 Y153.125 E22.44057
G1 X117.500 Y153.125 E22.92236
G1 X114.619 Y152.727 E23.20262
G1 X112.114 Y151.659 E23.46499
G1 X103.612 Y146.657 E24.41548
G1 X101.330 Y144.853 E24.69574
G1 X99.624 Y142.498 E24.97600
G1 X98.620 Y139.768 E25.25627
G1 X98.375 Y137.500 E25.47606
G1 X98.375 Y127.500 E26.43963
G1 X98.773 Y124.619 E26.71990
G1 X99.938 Y121.953 E27.00016
G1 X101.605 Y119.920 E27.25355
G1 X104.220 Y119.809 F2880.000 E26.11355
G1 F1320.000 E26.05355
G92 E0
G1 X109.350 Y127.850 F3600.000
G1 E1.20000 F1320.000
G1 X130.650 Y127.850 E3.25240 F630.000
G1 X130.650 Y137.300 E4.16296
G1 X122.405 Y142.150 E5.08472 F630.000
G1 X117.595 Y142.150 E5.54814
G1 X109.350 Y137.300 E6.46989
G1 X109.350 Y127.903 E7.37539
G1 X130.322 Y137.421 F3600.000
G1 X130.025 Y136.942 F3600.000
G1 X122.235 Y141.525 E8.24631 F900.000
G1 X117.765 Y141.525 E8.67694
G1 X109.975 Y136.942 E9.54786
G1 X109.975 Y128.475 E10.36377
G1 X130.025 Y128.475 E12.29575 F900.000
G1 X130.025 Y136.890 E13.10659
G1 X130.025 Y134.272 F2880.000 E11.96659
G1 F1320.000 E11.90659
G92 E0
G1 X125.204 Y139.053 F3600.000
G1 E1.20000 F1320.000
G1 X122.064 Y140.900 E1.55102 F900.000
G1 X117.936 Y140.900 E1.94886
G1 X110.600 Y136.585 E2.76894
G1 X110.600 Y129.100 E3.49020
G1 X129.400 Y129.100 E5.30175
G1 X129.400 Y136.585 E6.02301
G1 X125.250 Y139.027 E6.48701 F900.000
G1 X117.765 Y140.298 F3600.000
G1 X111.033 Y133.565 E7.40447 F990.000
G1 X111.033 Y132.651 E7.49250
G1 X118.849 Y140.467 E8.55755
G1 X119.762 Y140.467 E8.64558
G1 X111.033 Y131.738 E9.83512
G1 X111.033 Y130.824 E9.92316
G1 X120.676 Y140.467 E11.23720
G1 X121.589 Y140.467 E11.32523
G1 X111.033 Y129.911 E12.76377
G1 X111.569 Y129.533 E12.82694
G1 X122.297 Y140.261 E14.28887
G1 X122.872 Y139.923 E14.35318
G1 X112.482 Y129.533 E15.76901
G1 X113.396 Y129.533 E15.85704
G1 X123.447 Y139.584 E17.22676
G1 X124.023 Y139.246 E17.29106
G1 X114.309 Y129.533 E18.61467
G1 X115.223 Y129.533 E18.70270
G1 X124.598 Y138.908 E19.98019
G1 X125.173 Y138.569 E20.04450
G1 X116.137 Y129.533 E21.27589
G1 X117.050 Y129.533 E21.36392
G1 X125.748 Y138.231 E22.54919
G1 X126.324 Y137.892 E22.61350
G1 X117.964 Y129.533 E23.75267
G1 X118.877 Y129.533 E23.84070
G1 X126.899 Y137.554 E24.93375
G1 X127.474 Y137.216 E24.99806
G1 X119.791 Y129.533 E26.04500
G1 X120.705 Y129.533 E26.13304
G1 X128.049 Y136.877 E27.13387
G1 X128.624 Y136.539 E27.19818
G1 X121.618 Y129.533 E28.15290
G1 X122.532 Y129.533 E28.24093
G1 X128.967 Y135.968 E29.11787
G1 X128.967 Y135.054 E29.20590
G1 X123.446 Y129.533 E29.95833
G1 X124.359 Y129.533 E30.04637
G1 X128.967 Y134.141 E30.67430
G1 X128.967 Y133.227 E30.76234
G1 X125.273 Y129.533 E31.26578
G1 X126.186 Y129.533 E31.35381
G1 X128.967 Y132.314 E31.73275
G1 X128.967 Y131.400 E31.82078
G1 X127.100 Y129.533 E32.07523
G1 X128.014 Y129.533 E32.16326
G1 X128.967 Y130.486 E32.29321
G1 X128.967 Y129.573 E32.38124
G1 X128.927 Y129.533 E32.38669
G1 X115.547 Y138.993 F3600.000
G1 X111.033 Y134.479 E33.00180 F990.000
G1 X111.033 Y135.392 E33.08983
G1 X113.328 Y137.687 E33.40259
G1 X111.477 Y135.836 F2880.000 E32.26259
G1 F1320.000 E32.20259
G92 E0
G1 X111.109 Y136.382 F3600.000
G1 E1.20000 F1320.000
G1 X111.033 Y136.306 E1.21040 F990.000
M106 S255
M104 S195 ; set temperature
M140 S57 ; set bed temperature
M204 S750
G1 X111.109 Y136.382 F1213.164 E1.16339
G1 F1320.000 E0.01040
G92 E0
G1 Z0.550 F3600.000
G1 X111.830 Y137.325 F3600.000
G1 E1.20000 F1320.000
M204 S750
G1 X111.828 Y138.960 E1.25044 F884.599
G1 X109.175 Y137.400 E1.34536
G1 X109.175 Y127.675 E1.64527
G1 X130.825 Y127.675 E2.31295
G1 X130.825 Y137.400 E2.61287
M204 S750
M204 S750
G1 X128.172 Y138.960 E2.70778 F884.599
G1 X128.170 Y137.325 E2.75821
G1 X125.330 Y137.325 E2.84580
G1 X125.330 Y140.632 E2.94781
G1 X122.452 Y142.325 E3.05076
G1 X117.548 Y142.325 E3.20201
G1 X114.670 Y140.632 E3.30496
G1 X114.670 Y137.325 E3.40696
G1 X111.882 Y137.325 E3.49294
M204 S750
G1 X130.497 Y137.521 F3600.000
G1 X130.351 Y137.273 F3600.000
M204 S750
G1 X128.523 Y138.348 E3.55834 F1263.713
G1 X128.519 Y136.975 E3.60069
G1 X124.981 Y136.975 E3.70981
G1 X124.979 Y140.432 E3.81644
G1 X122.357 Y141.975 E3.91027
G1 X117.643 Y141.975 E4.05565
G1 X115.021 Y140.433 E4.14947
G1 X115.019 Y136.975 E4.25610
G1 X111.481 Y136.975 E4.36522
G1 X111.477 Y138.348 E4.40757
G1 X109.525 Y137.200 E4.47741
G1 X109.525 Y128.025 E4.76035
M204 S750
M204 S750
G1 X130.475 Y128.025 E5.40645 F1263.713
G1 X130.475 Y137.200 E5.68939
G1 X130.396 Y137.246 E5.69222
M204 S750
G1 X128.970 Y137.679 F3600.000
M204 S750
G1 X128.871 Y137.737 E5.69577 F1263.713
G1 X128.868 Y136.625 E5.73007
G1 X124.632 Y136.625 E5.86072
G1 X124.629 Y140.232 E5.97197
G1 X122.262 Y141.625 E6.05668
G1 X117.738 Y141.625 E6.19618
G1 X115.371 Y140.233 E6.28087
G1 X115.368 Y136.625 E6.39213
G1 X111.132 Y136.625 E6.52279
G1 X111.129 Y137.737 E6.55708
G1 X109.875 Y137.000 E6.60194
G1 X109.875 Y128.375 E6.86792
G1 X130.125 Y128.375 E7.49242
G1 X130.125 Y137.000 E7.75840
M204 S750
M204 S750
G1 X129.016 Y137.652 E7.79809 F1263.713
M204 S750
G1 X129.862 Y136.818 F3600.000
M204 S750
G1 X129.785 Y136.894 E7.80267 F1390.084
G1 X129.132 Y136.851 E7.83042
G1 X129.862 Y136.121 E7.87415
G1 X129.862 Y135.424 E7.90368
G1 X128.924 Y136.362 E7.95987
G1 X128.228 Y136.362 E7.98939
G1 X129.862 Y134.728 E8.08734
G1 X129.862 Y134.031 E8.11687
G1 X127.531 Y136.362 E8.25657
G1 X126.835 Y136.362 E8.28610
G1 X129.862 Y133.335 E8.46755
G1 X129.862 Y132.638 E8.49708
G1 X126.138 Y136.362 E8.72030
G1 X125.442 Y136.362 E8.74982
G1 X129.862 Y131.942 E9.01479
G1 X129.862 Y131.245 E9.04432
G1 X119.745 Y141.362 E9.65077
G1 X119.048 Y141.362 E9.68030
G1 X129.862 Y130.548 E10.32851
G1 X129.862 Y129.852 E10.35803
G1 X118.352 Y141.362 E11.04800
G1 X117.713 Y141.304 E11.07520
G1 X129.862 Y129.155 E11.80349
G1 X129.682 Y128.638 E11.82669
G1 X117.274 Y141.047 E12.57050
G1 X116.835 Y140.789 E12.59207
G1 X128.986 Y128.638 E13.32042
G1 X128.289 Y128.638 E13.34995
G1 X116.397 Y140.531 E14.06283
G1 X115.958 Y140.273 E14.08440
G1 X127.593 Y128.638 E14.78182
G1 X126.896 Y128.638 E14.81135
G1 X115.634 Y139.900 E15.48644
G1 X115.634 Y139.204 E15.51594
G1 X126.199 Y128.638 E16.14931
G1 X125.503 Y128.638 E16.17884
G1 X115.633 Y138.508 E16.77048
G1 X115.633 Y137.812 E16.79998
G1 X124.806 Y128.638 E17.34990
G1 X124.110 Y128.638 E17.37943
G1 X115.632 Y137.116 E17.88762
G1 X115.631 Y136.420 E17.91713
G1 X123.413 Y128.638 E18.38360
G1 X122.717 Y128.638 E18.41312
G1 X114.993 Y136.362 E18.87611
G1 X114.296 Y136.362 E18.90564
G1 X122.020 Y128.638 E19.36863
G1 X121.323 Y128.638 E19.39815
G1 X113.600 Y136.362 E19.86114
G1 X112.903 Y136.362 E19.89067
G1 X120.627 Y128.638 E20.35366
G1 X119.930 Y128.638 E20.38318
G1 X112.207 Y136.362 E20.84617
G1 X111.510 Y136.362 E20.87570
G1 X119.234 Y128.638 E21.33869
G1 X118.537 Y128.638 E21.36822
G1 X110.257 Y136.919 E21.86459
G1 X110.695 Y137.177 E21.88616
G1 X110.868 Y137.004 E21.89648
G1 X110.138 Y136.341 E21.93829
G1 X117.841 Y128.638 E22.40000
G1 X117.144 Y128.638 E22.42953
G1 X110.138 Y135.644 E22.84949
G1 X110.138 Y134.947 E22.87901
G1 X116.447 Y128.638 E23.25722
G1 X115.751 Y128.638 E23.28674
G1 X110.138 Y134.251 E23.62319
G1 X110.138 Y133.554 E23.65271
G1 X115.054 Y128.638 E23.94740
G1 X114.358 Y128.638 E23.97693
G1 X110.138 Y132.858 E24.22986
G1 X110.138 Y132.161 E24.25939
G1 X113.661 Y128.638 E24.47057
G1 X112.965 Y128.638 E24.50009
G1 X110.138 Y131.465 E24.66952
G1 X110.138 Y130.768 E24.69904
G1 X112.268 Y128.638 E24.82671
G1 X111.571 Y128.638 E24.85624
G1 X110.138 Y130.071 E24.94215
G1 X110.138 Y129.375 E24.97167
G1 X110.875 Y128.638 E25.01583
G1 X110.178 Y128.638 E25.04535
G1 X110.138 Y128.678 E25.04775
M204 S750
G1 X120.442 Y141.362 F3600.000
M204 S750
G1 X124.368 Y137.435 E25.28312 F1390.084
G1 X124.367 Y138.132 E25.31267
G1 X121.138 Y141.362 E25.50625
G1 X121.835 Y141.362 E25.53577
G1 X124.367 Y138.830 E25.68757
G1 X124.366 Y139.527 E25.71711
G1 X123.019 Y140.874 E25.79790
M204 S750
G1 X124.366 Y139.527 F1193.668 E24.96805
G1 X124.367 Y138.830 F1193.668 E24.66452
G1 X124.356 Y138.840 F1193.668 E24.65790
G1 F1320.000 E24.59790
G92 E0
G1 Z0.750 F3600.000
G1 X124.833 Y138.839 F3600.000
G1 E1.20000 F1320.000
M204 S750
G1 X124.833 Y140.925 E1.26431 F870.383
G1 X122.452 Y142.325 E1.34949
G1 X117.548 Y142.325 E1.50074
G1 X115.167 Y140.925 E1.58593
G1 X115.166 Y137.325 E1.69694
G1 X111.334 Y137.325 E1.81511
G1 X111.333 Y138.669 E1.85657
G1 X109.175 Y137.400 E1.93378
G1 X109.175 Y127.675 E2.23369
G1 X130.825 Y127.675 E2.90137
G1 X130.825 Y137.400 E3.20129
M204 S750
M204 S750
G1 X128.667 Y138.669 E3.27848 F870.383
G1 X128.666 Y137.325 E3.31993
G1 X124.834 Y137.325 E3.43810
G1 X124.833 Y138.787 E3.48319
M204 S750
G1 X127.450 Y138.706 F1193.668 E2.34319
G1 F1320.000 E2.28319
G92 E0
G1 X130.496 Y137.520 F3600.000
G1 X130.351 Y137.273 F3600.000
G1 E1.20000 F1320.000
M204 S750
G1 X129.018 Y138.057 E1.24770 F1243.404
G1 X129.015 Y136.975 E1.28107
G1 X124.485 Y136.975 E1.42079
G1 X124.483 Y140.725 E1.53642
G1 X122.357 Y141.975 E1.61248
G1 X117.643 Y141.975 E1.75786
G1 X115.517 Y140.724 E1.83392
G1 X115.515 Y136.975 E1.94956
G1 X110.984 Y136.975 E2.08929
G1 X110.984 Y138.058 E2.12268
G1 X109.525 Y137.200 E2.17486
G1 X109.525 Y128.025 E2.45781
M204 S750
M204 S750
G1 X130.475 Y128.025 E3.10390 F1243.404
G1 X130.475 Y137.200 E3.38685
G1 X130.396 Y137.246 E3.38967
M204 S750
G1 X130.418 Y134.628 F1193.668 E2.24967
G1 F1320.000 E2.18967
G92 E0
G1 X119.614 Y141.625 F3600.000
G1 E1.20000 F1320.000
M204 S750
G1 X117.738 Y141.625 E1.25784 F1243.404
G1 X115.867 Y140.524 E1.32479
G1 X115.865 Y136.625 E1.44505
G1 X110.635 Y136.625 E1.60633
G1 X110.634 Y137.446 E1.63165
G1 X109.875 Y137.000 E1.65881
G1 X109.875 Y128.375 E1.92479
G1 X130.125 Y128.375 E2.54930
G1 X130.125 Y137.000 E2.81528
M204 S750
M204 S750
G1 X129.366 Y137.446 E2.84242 F1243.404
G1 X129.365 Y136.625 E2.86774
G1 X124.136 Y136.625 E3.02900
G1 X124.132 Y140.525 E3.14926
G1 X122.262 Y141.625 E3.21619
G1 X119.666 Y141.625 E3.29623
M204 S750
G1 X116.981 Y140.874 F3600.000
M204 S750
G1 X116.130 Y140.023 E3.34727 F1367.745
G1 X116.129 Y139.326 E3.37682
G1 X118.165 Y141.362 E3.49885
G1 X118.862 Y141.362 E3.52838
G1 X116.129 Y138.629 E3.69220
G1 X116.129 Y137.932 E3.72174
G1 X119.558 Y141.362 E3.92734
G1 X120.255 Y141.362 E3.95687
G1 X116.128 Y137.235 E4.20425
M204 S750
G1 X110.215 Y136.894 F3600.000
M204 S750
G1 X110.138 Y136.818 E4.20883 F1367.745
G1 X110.138 Y136.121 E4.23835
G1 X110.379 Y136.362 E4.25279
G1 X111.076 Y136.362 E4.28231
G1 X110.138 Y135.424 E4.33850
G1 X110.138 Y134.728 E4.36803
G1 X111.772 Y136.362 E4.46598
G1 X112.469 Y136.362 E4.49550
G1 X110.138 Y134.031 E4.63521
G1 X110.138 Y133.335 E4.66473
G1 X113.165 Y136.362 E4.84619
G1 X113.862 Y136.362 E4.87572
G1 X110.138 Y132.638 E5.09893
G1 X110.138 Y131.942 E5.12846
G1 X114.558 Y136.362 E5.39343
G1 X115.255 Y136.362 E5.42295
G1 X110.138 Y131.245 E5.72968
G1 X110.138 Y130.548 E5.75921
G1 X120.952 Y141.362 E6.40742
G1 X121.648 Y141.362 E6.43694
G1 X110.138 Y129.852 E7.12691
G1 X110.138 Y129.155 E7.15643
G1 X122.287 Y141.304 E7.88472
G1 X122.726 Y141.047 E7.90629
G1 X110.318 Y128.638 E8.65010
G1 X111.014 Y128.638 E8.67963
G1 X123.165 Y140.789 E9.40798
G1 X123.603 Y140.531 E9.42955
G1 X111.711 Y128.638 E10.14243
G1 X112.407 Y128.638 E10.17196
G1 X123.870 Y140.100 E10.85905
G1 X123.870 Y139.404 E10.88855
G1 X113.104 Y128.638 E11.53393
G1 X113.801 Y128.638 E11.56345
G1 X123.871 Y138.708 E12.16710
G1 X123.871 Y138.012 E12.19660
G1 X114.497 Y128.638 E12.75854
G1 X115.194 Y128.638 E12.78806
G1 X123.872 Y137.316 E13.30827
G1 X123.872 Y136.620 E13.33777
G1 X115.890 Y128.638 E13.81626
G1 X116.587 Y128.638 E13.84579
G1 X124.310 Y136.362 E14.30878
G1 X125.007 Y136.362 E14.33830
G1 X117.283 Y128.638 E14.80129
G1 X117.980 Y128.638 E14.83082
G1 X125.704 Y136.362 E15.29381
G1 X126.400 Y136.362 E15.32333
G1 X118.677 Y128.638 E15.78632
G1 X119.373 Y128.638 E15.81585
G1 X127.097 Y136.362 E16.27884
G1 X127.793 Y136.362 E16.30836
G1 X120.070 Y128.638 E16.77136
G1 X120.766 Y128.638 E16.80088
G1 X128.490 Y136.362 E17.26387
M204 S750
G1 X129.186 Y136.362 F3600.000
M204 S750
G1 X121.463 Y128.638 E17.72686 F1367.745
G1 X122.159 Y128.638 E17.75639
G1 X129.862 Y136.341 E18.21810
G1 X129.862 Y135.644 E18.24763
G1 X122.856 Y128.638 E18.66759
G1 X123.553 Y128.638 E18.69711
G1 X129.862 Y134.947 E19.07532
G1 X129.862 Y134.251 E19.10484
G1 X124.249 Y128.638 E19.44129
G1 X124.946 Y128.638 E19.47081
G1 X129.862 Y133.554 E19.76550
G1 X129.862 Y132.858 E19.79503
G1 X125.642 Y128.638 E20.04796
G1 X126.339 Y128.638 E20.07749
G1 X129.862 Y132.161 E20.28867
G1 X129.862 Y131.465 E20.31819
G1 X127.035 Y128.638 E20.48762
G1 X127.732 Y128.638 E20.51714
G1 X129.862 Y130.768 E20.64481
G1 X129.862 Y130.071 E20.67434
G1 X128.429 Y128.638 E20.76025
G1 X129.125 Y128.638 E20.78977
G1 X129.862 Y129.375 E20.83393
G1 X129.862 Y128.678 E20.86345
G1 X129.822 Y128.638 E20.86585
M204 S750
G1 X129.628 Y136.803 F3600.000
M204 S750
G1 X129.743 Y136.919 E20.87276 F1367.745
M204 S750
G1 X129.628 Y136.803 F1265.635 E20.80181
G1 F1320.000 E19.67276
G92 E0
G1 Z0.950 F3600.000
G1 X129.030 Y137.325 F3600.000
G1 E1.20000 F1320.000
M204 S750
G1 X124.470 Y137.325 E1.34062 F922.859
G1 X124.470 Y141.138 E1.45822
G1 X122.452 Y142.325 E1.53040
G1 X117.548 Y142.325 E1.68166
G1 X115.530 Y141.138 E1.75384
G1 X115.530 Y137.325 E1.87144
G1 X110.970 Y137.325 E2.01207
G1 X110.970 Y138.456 E2.04694
G1 X109.175 Y137.400 E2.11115
G1 X109.175 Y127.675 E2.41106
G1 X130.825 Y127.675 E3.07874
G1 X130.825 Y137.400 E3.37866
M204 S750
M204 S750
G1 X129.031 Y138.455 E3.44285 F922.859
G1 X129.030 Y137.378 E3.47609
M204 S750
G1 X130.822 Y137.050 F3600.000
G1 X130.475 Y137.050 F3600.000
M204 S750
G1 X130.475 Y137.200 E3.48071 F1318.370
G1 X129.381 Y137.843 E3.51986
G1 X129.379 Y136.975 E3.54664
G1 X124.121 Y136.975 E3.70881
G1 X124.119 Y140.938 E3.83104
G1 X122.357 Y141.975 E3.89409
G1 X117.643 Y141.975 E4.03948
G1 X115.880 Y140.938 E4.10254
