; generated by Slic3r 1.1.7 on 2014-12-10 at 16:14:17

; perimeters extrusion width = 0.35mm
; infill extrusion width = 0.52mm
; solid infill extrusion width = 0.52mm
; top infill extrusion width = 0.52mm

G21 ; set units to millimeters
M107
M190 S60 ; wait for bed temperature to be reached
M104 S200 ; set temperature
G28 ; home all axes
G1 Z5 F5000 ; lift nozzle
M109 S200 ; wait for temperature to be reached
G90 ; use absolute coordinates
G92 E0
M82 ; use absolute distances for extrusion
M204 S1000
G1 F1500.000 E-1.40000
G92 E0
G1 Z0.300 F3600.000
G1 X105.119 Y134.428 F3600.000
G1 E1.40000 F1500.000
G1 X106.175 Y133.602 E1.49131 F1200.000
G1 X109.000 Y132.907 E1.68959
G1 X131.000 Y132.907 E3.18875
G1 X133.163 Y133.304 E3.33857
G1 X135.044 Y134.443 E3.48840 F1200.000
G1 X136.398 Y136.175 E3.63823
G1 X137.093 Y139.000 E3.83650
G1 X137.093 Y146.093 E4.31981
G1 X136.696 Y148.255 E4.46964
G1 X135.557 Y150.136 E4.61946
G1 X134.048 Y151.368 E4.75225
G1 X125.545 Y156.277 E5.42133
G1 X122.500 Y157.093 E5.63611
G1 X117.500 Y157.093 E5.97683
G1 X114.455 Y156.277 E6.19161
G1 X105.952 Y151.368 E6.86067
G1 X104.278 Y149.943 E7.01050
G1 X103.219 Y148.016 E7.16032
G1 X102.907 Y146.093 E7.29312
G1 X102.907 Y139.000 E7.77643
G1 X103.304 Y136.837 E7.92626
G1 X104.443 Y134.956 E8.07609
G1 X105.078 Y134.460 E8.13102
G1 X105.427 Y134.859 F3600.000
G1 X106.689 Y133.958 E8.23672 F1200.000
G1 X109.000 Y133.454 E8.39788
G1 X131.000 Y133.454 E9.89704
G1 X133.059 Y133.850 E10.03993
G1 X134.824 Y134.983 E10.18283 F1200.000
G1 X136.042 Y136.689 E10.32572
G1 X136.546 Y139.000 E10.48688
G1 X136.546 Y146.093 E10.97019
G1 X136.150 Y148.152 E11.11308
G1 X135.017 Y149.916 E11.25598
G1 X133.775 Y150.895 E11.36377
G1 X125.272 Y155.804 E12.03283
G1 X122.500 Y156.546 E12.22835
G1 X117.500 Y156.546 E12.56907
G1 X114.728 Y155.804 E12.76459
G1 X106.226 Y150.895 E13.43363
G1 X104.641 Y149.522 E13.57653
G1 X103.679 Y147.659 E13.71942
G1 X103.454 Y146.093 E13.82723
G1 X103.454 Y139.000 E14.31054
G1 X103.850 Y136.941 E14.45343
G1 X104.983 Y135.176 E14.59633
G1 X105.384 Y134.889 E14.62995
G1 X108.072 Y134.898 F2880.000 E13.29995
G1 F1500.000 E13.22995
G92 E0
G1 X129.607 Y140.393 F3600.000
G1 E1.40000 F1500.000
G1 X129.607 Y145.288 E1.73361 F960.000
G1 X122.127 Y149.607 E2.32222
G1 X117.873 Y149.607 E2.61208
G1 X110.393 Y145.288 E3.20069
G1 X110.393 Y140.393 E3.53430
G1 X129.555 Y140.393 E4.84008
G1 X130.154 Y139.846 F3600.000
G1 X130.154 Y145.604 E5.23242 F960.000
G1 X122.273 Y150.154 E5.85249
G1 X117.727 Y150.154 E6.16231
G1 X109.846 Y145.604 E6.78238
G1 X109.846 Y139.846 E7.17472
G1 X130.101 Y139.846 E8.55496
G1 X130.700 Y139.300 F3600.000
G1 X130.700 Y145.919 E9.00602 F672.000
G1 X122.420 Y150.700 E9.65757
G1 X117.580 Y150.700 E9.98734
G1 X109.300 Y145.919 E10.63888
G1 X109.300 Y139.300 E11.08995
G1 X130.648 Y139.300 E12.54464
G1 X130.525 Y139.603 F3600.000
G1 X129.191 Y140.769 F3600.000
G1 X129.231 Y140.809 E12.54850 F1200.000
G1 X129.231 Y141.591 E12.60182
G1 X128.409 Y140.769 E12.68109
G1 X127.626 Y140.769 E12.73442
G1 X129.231 Y142.374 E12.88910
G1 X129.231 Y143.156 E12.94242
G1 X126.844 Y140.769 E13.17251
G1 X126.061 Y140.769 E13.22584
G1 X129.231 Y143.939 E13.53134
G1 X129.231 Y144.721 E13.58467
G1 X125.279 Y140.769 E13.96558
G1 X124.496 Y140.769 E14.01891
G1 X128.957 Y145.230 E14.44880
G1 X128.461 Y145.516 E14.48784
G1 X123.713 Y140.769 E14.94534
G1 X122.931 Y140.769 E14.99866
G1 X127.965 Y145.803 E15.48376
G1 X127.469 Y146.089 E15.52280
G1 X122.148 Y140.769 E16.03550
G1 X121.366 Y140.769 E16.08883
G1 X126.973 Y146.375 E16.62914
G1 X126.476 Y146.662 E16.66817
G1 X120.583 Y140.769 E17.23608
G1 X119.801 Y140.769 E17.28941
G1 X125.980 Y146.948 E17.88492
G1 X125.484 Y147.235 E17.92396
G1 X119.018 Y140.769 E18.54707
G1 X118.236 Y140.769 E18.60040
G1 X124.988 Y147.521 E19.25112
G1 X124.492 Y147.808 E19.29015
G1 X117.453 Y140.769 E19.96847
G1 X116.671 Y140.769 E20.02180
G1 X123.996 Y148.094 E20.72772
G1 X123.500 Y148.380 E20.76676
G1 X115.888 Y140.769 E21.50029
G1 X115.106 Y140.769 E21.55361
G1 X123.004 Y148.667 E22.31474
G1 X122.508 Y148.953 E22.35378
G1 X114.323 Y140.769 E23.14251
G1 X113.541 Y140.769 E23.19583
G1 X122.003 Y149.231 E24.01136
G1 X121.220 Y149.231 E24.06468
G1 X112.758 Y140.769 E24.88021
G1 X111.976 Y140.769 E24.93353
G1 X120.438 Y149.231 E25.74905
G1 X119.655 Y149.231 E25.80238
G1 X111.193 Y140.769 E26.61790
G1 X110.769 Y141.127 E26.65574
G1 X118.873 Y149.231 E27.43673
G1 X118.090 Y149.231 E27.49006
G1 X110.769 Y141.910 E28.19564
G1 X110.769 Y142.692 E28.24896
G1 X116.398 Y148.321 E28.79144
G1 X114.546 Y147.252 F3600.000
G1 X110.769 Y143.475 E29.15548 F1200.000
G1 X110.769 Y144.257 E29.20881
G1 X112.695 Y146.183 E29.39443
G1 X110.794 Y144.283 F2880.000 E28.06443
G1 F1500.000 E27.99443
G92 E0
G1 X110.843 Y145.114 F3600.000
G1 E1.40000 F1500.000
G1 X110.769 Y145.040 E1.40719 F1200.000
M106 S255
M140 S53 ; set bed temperature
M204 S1000
G1 X110.843 Y145.114 F2259.288 E1.35496
G1 F1500.000 E0.00719
G92 E0
G1 Z0.500 F3600.000
G1 X128.705 Y145.125 F3600.000
G1 E1.40000 F1500.000
M204 S1000
G1 X124.793 Y145.125 E1.51387 F1882.740
G1 X124.793 Y148.666 E1.61691
G1 X122.266 Y150.125 E1.70185
G1 X117.734 Y150.125 E1.83372
G1 X115.207 Y148.666 E1.91866
G1 X115.207 Y145.125 E2.02170
G1 X111.295 Y145.125 E2.13557
G1 X111.292 Y146.405 E2.17284
G1 X109.875 Y145.587 E2.22045
G1 X109.875 Y139.875 E2.38670
G1 X130.125 Y139.875 E2.97602
G1 X130.125 Y145.587 E3.14227
G1 X128.708 Y146.405 E3.18988
G1 X128.706 Y145.178 E3.22562
M204 S1000
G1 X128.356 Y145.475 F3600.000
M204 S1000
G1 X125.143 Y145.475 E3.31914 F1882.740
G1 X125.144 Y148.868 E3.41787
G1 X122.359 Y150.475 E3.51143
G1 X117.641 Y150.475 E3.64876
G1 X114.856 Y148.868 E3.74232
G1 X114.857 Y145.475 E3.84105
G1 X111.644 Y145.475 E3.93457
G1 X111.642 Y147.012 E3.97929
G1 X109.525 Y145.789 E4.05042
G1 X109.525 Y139.525 E4.23274
G1 X130.475 Y139.525 E4.84244
G1 X130.475 Y145.789 E5.02475
G1 X128.358 Y147.012 E5.09588
G1 X128.356 Y145.528 E5.13907
M204 S1000
G1 X128.007 Y145.825 F3600.000
M204 S1000
G1 X125.493 Y145.825 E5.21224 F1317.918
G1 X125.494 Y149.069 E5.30666
G1 X122.453 Y150.825 E5.40885
G1 X117.547 Y150.825 E5.55163
G1 X114.506 Y149.069 E5.65382
G1 X114.507 Y145.825 E5.74824
G1 X111.993 Y145.825 E5.82141
G1 X111.992 Y147.618 E5.87358
G1 X109.175 Y145.991 E5.96824
G1 X109.175 Y139.175 E6.16661
G1 X130.825 Y139.175 E6.79669
G1 X130.825 Y145.991 E6.99506
G1 X128.008 Y147.618 E7.08972
G1 X128.007 Y145.878 E7.14037
M204 S1000
G1 X128.007 Y145.475 F3600.000
G1 X129.862 Y145.404 F3600.000
M204 S1000
G1 X129.787 Y145.478 E7.14459 F2353.425
G1 X129.862 Y144.711 E7.17544
G1 X128.970 Y145.603 E7.22591
G1 X128.968 Y144.911 E7.25357
G1 X129.862 Y144.018 E7.30412
G1 X129.862 Y143.325 E7.33184
G1 X128.325 Y144.862 E7.41879
G1 X127.632 Y144.862 E7.44651
G1 X129.862 Y142.632 E7.57267
G1 X129.862 Y141.939 E7.60039
G1 X126.939 Y144.862 E7.76574
G1 X126.246 Y144.862 E7.79346
G1 X129.862 Y141.246 E7.99803
G1 X129.862 Y140.553 E8.02575
G1 X125.553 Y144.862 E8.26951
G1 X124.860 Y144.862 E8.29723
G1 X129.583 Y140.138 E8.56444
G1 X128.890 Y140.138 E8.59216
G1 X119.167 Y149.862 E9.14221
G1 X119.860 Y149.862 E9.16993
G1 X124.530 Y145.192 E9.43410
G1 X124.530 Y145.885 E9.46182
G1 X120.553 Y149.862 E9.68680
G1 X121.246 Y149.862 E9.71452
G1 X124.530 Y146.578 E9.90029
G1 X124.530 Y147.271 E9.92801
G1 X121.939 Y149.862 E10.07459
M204 S1000
G1 X123.228 Y149.265 F3600.000
M204 S1000
G1 X124.530 Y147.964 E10.14822 F2353.425
M204 S1000
G1 X118.473 Y149.862 F3600.000
M204 S1000
G1 X128.197 Y140.138 E10.69827 F2353.425
G1 X127.504 Y140.138 E10.72599
G1 X117.789 Y149.853 E11.27553
G1 X117.350 Y149.599 E11.29582
G1 X126.811 Y140.138 E11.83102
G1 X126.118 Y140.138 E11.85874
G1 X116.911 Y149.345 E12.37958
G1 X116.471 Y149.092 E12.39987
G1 X125.425 Y140.138 E12.90636
G1 X124.732 Y140.138 E12.93408
G1 X116.032 Y148.838 E13.42623
G1 X115.593 Y148.584 E13.44652
G1 X124.039 Y140.138 E13.92431
G1 X123.346 Y140.138 E13.95203
G1 X115.470 Y148.014 E14.39755
G1 X115.470 Y147.321 E14.42527
G1 X122.653 Y140.138 E14.83158
G1 X121.960 Y140.138 E14.85930
G1 X115.470 Y146.628 E15.22641
G1 X115.470 Y145.935 E15.25413
G1 X121.267 Y140.138 E15.58202
G1 X120.574 Y140.138 E15.60974
G1 X115.470 Y145.241 E15.89843
G1 X115.157 Y144.862 E15.91812
G1 X119.881 Y140.138 E16.18532
G1 X119.188 Y140.138 E16.21305
G1 X114.464 Y144.862 E16.48025
G1 X113.771 Y144.862 E16.50797
G1 X118.495 Y140.138 E16.77518
G1 X117.802 Y140.138 E16.80290
G1 X113.078 Y144.862 E17.07010
G1 X112.385 Y144.862 E17.09783
G1 X117.109 Y140.138 E17.36503
G1 X116.416 Y140.138 E17.39275
G1 X111.692 Y144.862 E17.65996
M204 S1000
G1 X111.031 Y145.523 F3600.000
M204 S1000
G1 X110.760 Y145.794 E17.67528 F2353.425
G1 X110.320 Y145.540 E17.69558
G1 X115.722 Y140.138 E18.00117
G1 X115.029 Y140.138 E18.02890
G1 X110.138 Y145.029 E18.30559
G1 X110.138 Y144.336 E18.33331
G1 X114.336 Y140.138 E18.57079
G1 X113.643 Y140.138 E18.59851
G1 X110.138 Y143.643 E18.79680
G1 X110.138 Y142.950 E18.82452
G1 X112.950 Y140.138 E18.98360
G1 X112.257 Y140.138 E19.01132
G1 X110.138 Y142.257 E19.13119
G1 X110.138 Y141.564 E19.15891
G1 X111.564 Y140.138 E19.23958
G1 X110.871 Y140.138 E19.26730
G1 X110.138 Y140.871 E19.30877
G1 X110.138 Y140.178 E19.33649
G1 X110.178 Y140.138 E19.33875
M204 S1000
G1 X110.138 Y140.178 F2218.737 E19.31077
G1 X110.138 Y140.871 F2218.737 E18.96786
G1 X110.871 Y140.138 F2218.737 E18.45493
G1 X111.564 Y140.138 F2218.737 E18.11202
G1 X111.417 Y140.286 F2218.737 E18.00876
G1 F1500.000 E17.93875
G92 E0
G1 Z0.700 F3600.000
G1 X129.258 Y145.125 F3600.000
G1 E1.40000 F1500.000
M204 S1000
G1 X124.242 Y145.125 E1.54598 F1848.947
G1 X124.241 Y148.984 E1.65830
G1 X122.266 Y150.125 E1.72469
G1 X117.734 Y150.125 E1.85656
G1 X115.759 Y148.984 E1.92296
G1 X115.758 Y145.125 E2.03527
G1 X110.742 Y145.125 E2.18125
G1 X110.741 Y146.088 E2.20927
G1 X109.875 Y145.587 E2.23839
G1 X109.875 Y139.875 E2.40463
G1 X130.125 Y139.875 E2.99396
G1 X130.125 Y145.587 E3.16020
G1 X129.259 Y146.088 E3.18932
G1 X129.258 Y145.178 E3.21581
M204 S1000
G1 X128.908 Y145.475 F3600.000
M204 S1000
G1 X124.592 Y145.475 E3.34143 F1848.947
G1 X124.591 Y149.186 E3.44944
G1 X122.359 Y150.475 E3.52444
G1 X117.641 Y150.475 E3.66177
G1 X115.409 Y149.186 E3.73678
G1 X115.408 Y145.475 E3.84479
G1 X111.092 Y145.475 E3.97041
G1 X111.091 Y146.694 E4.00587
G1 X109.525 Y145.789 E4.05849
G1 X109.525 Y139.525 E4.24080
G1 X130.475 Y139.525 E4.85050
G1 X130.475 Y145.789 E5.03282
G1 X128.909 Y146.694 E5.08544
G1 X128.908 Y145.528 E5.11937
M204 S1000
G1 X128.558 Y145.825 F3600.000
M204 S1000
G1 X124.942 Y145.825 E5.22463 F1294.263
G1 X124.942 Y149.388 E5.32833
G1 X122.453 Y150.825 E5.41195
G1 X117.547 Y150.825 E5.55474
G1 X115.058 Y149.388 E5.63836
G1 X115.058 Y145.825 E5.74206
G1 X111.442 Y145.825 E5.84732
G1 X111.441 Y147.300 E5.89024
G1 X109.175 Y145.991 E5.96641
G1 X109.175 Y139.175 E6.16478
G1 X130.825 Y139.175 E6.79486
G1 X130.825 Y145.991 E6.99323
G1 X128.559 Y147.300 E7.06940
G1 X128.558 Y145.878 E7.11079
M204 S1000
G1 X128.558 Y145.475 F3600.000
G1 X129.521 Y145.382 F3600.000
M204 S1000
G1 X129.680 Y145.540 E7.11977 F2311.184
M204 S1000
G1 X129.822 Y140.138 F3600.000
M204 S1000
G1 X129.862 Y140.178 E7.12203 F2311.184
G1 X129.862 Y140.871 E7.14975
G1 X129.129 Y140.138 E7.19122
G1 X128.436 Y140.138 E7.21894
G1 X129.862 Y141.564 E7.29961
G1 X129.862 Y142.257 E7.32733
G1 X127.743 Y140.138 E7.44721
G1 X127.050 Y140.138 E7.47493
G1 X129.862 Y142.950 E7.63401
G1 X129.862 Y143.643 E7.66173
G1 X126.357 Y140.138 E7.86001
G1 X125.664 Y140.138 E7.88773
G1 X129.862 Y144.336 E8.12522
G1 X129.862 Y145.029 E8.15294
G1 X124.971 Y140.138 E8.42963
G1 X124.278 Y140.138 E8.45735
G1 X129.001 Y144.862 E8.72456
G1 X128.308 Y144.862 E8.75228
G1 X123.584 Y140.138 E9.01948
G1 X122.891 Y140.138 E9.04720
G1 X127.615 Y144.862 E9.31441
G1 X126.922 Y144.862 E9.34213
G1 X122.198 Y140.138 E9.60934
G1 X121.505 Y140.138 E9.63706
G1 X126.229 Y144.862 E9.90426
G1 X125.536 Y144.862 E9.93198
G1 X120.812 Y140.138 E10.19919
G1 X120.119 Y140.138 E10.22691
G1 X124.843 Y144.862 E10.49412
G1 X124.150 Y144.862 E10.52184
G1 X119.426 Y140.138 E10.78904
G1 X118.733 Y140.138 E10.81676
G1 X123.978 Y145.383 E11.11347
G1 X123.978 Y146.076 E11.14119
G1 X118.040 Y140.138 E11.47710
G1 X117.347 Y140.138 E11.50482
G1 X123.978 Y146.769 E11.87993
G1 X123.978 Y147.462 E11.90765
G1 X116.654 Y140.138 E12.32196
G1 X115.961 Y140.138 E12.34968
G1 X123.978 Y148.155 E12.80319
G1 X123.968 Y148.838 E12.83051
G1 X115.268 Y140.138 E13.32265
G1 X114.575 Y140.138 E13.35038
G1 X123.529 Y149.092 E13.85687
G1 X123.089 Y149.345 E13.87716
G1 X113.882 Y140.138 E14.39800
G1 X113.189 Y140.138 E14.42572
G1 X122.650 Y149.599 E14.96091
G1 X122.211 Y149.853 E14.98121
G1 X112.496 Y140.138 E15.53075
G1 X111.803 Y140.138 E15.55847
G1 X121.527 Y149.862 E16.10852
G1 X120.833 Y149.862 E16.13624
G1 X111.110 Y140.138 E16.68629
G1 X110.417 Y140.138 E16.71401
G1 X115.140 Y144.862 E16.98121
G1 X114.447 Y144.862 E17.00894
G1 X110.138 Y140.553 E17.25270
G1 X110.138 Y141.246 E17.28042
G1 X113.754 Y144.862 E17.48498
G1 X113.061 Y144.862 E17.51270
G1 X110.138 Y141.939 E17.67806
G1 X110.138 Y142.632 E17.70578
G1 X112.368 Y144.862 E17.83193
G1 X111.675 Y144.862 E17.85966
G1 X110.138 Y143.325 E17.94660
G1 X110.138 Y144.018 E17.97433
G1 X110.982 Y144.862 E18.02207
G1 X110.479 Y145.052 E18.04358
G1 X110.138 Y144.711 E18.06287
G1 X110.138 Y145.404 E18.09059
G1 X110.213 Y145.478 E18.09481
M204 S1000
G1 X116.022 Y145.743 F3600.000
M204 S1000
G1 X120.140 Y149.862 E18.32780 F2311.184
G1 X119.447 Y149.862 E18.35552
G1 X116.022 Y146.436 E18.54931
G1 X116.022 Y147.129 E18.57703
G1 X118.754 Y149.862 E18.73161
G1 X118.061 Y149.862 E18.75933
G1 X116.022 Y147.822 E18.87470
G1 X116.022 Y148.515 E18.90243
G1 X116.772 Y149.265 E18.94485
M204 S1000
G1 X116.022 Y148.515 F1824.831 E18.42010
G1 X116.022 Y147.822 F1824.831 E18.07717
G1 X116.683 Y148.483 F1824.831 E17.61485
G1 F1500.000 E17.54485
G92 E0
G1 Z0.900 F3600.000
G1 X129.647 Y145.125 F3600.000
G1 E1.40000 F1500.000
M204 S1000
G1 X123.852 Y145.125 E1.56865 F1520.692
G1 X123.852 Y149.209 E1.68750
G1 X122.266 Y150.125 E1.74082
G1 X117.734 Y150.125 E1.87269
G1 X116.148 Y149.209 E1.92601
G1 X116.148 Y145.125 E2.04486
G1 X110.353 Y145.125 E2.21351
G1 X110.352 Y145.863 E2.23499
G1 X109.875 Y145.587 E2.25103
G1 X109.875 Y139.875 E2.41728
G1 X130.125 Y139.875 E3.00661
G1 X130.125 Y145.587 E3.17285
G1 X129.647 Y145.863 E3.18890
G1 X129.647 Y145.178 E3.20885
M204 S1000
G1 X129.297 Y145.475 F3600.000
M204 S1000
G1 X124.202 Y145.475 E3.35712 F1520.692
G1 X124.202 Y149.411 E3.47167
G1 X122.359 Y150.475 E3.53360
G1 X117.641 Y150.475 E3.67093
G1 X115.798 Y149.411 E3.73286
G1 X115.798 Y145.475 E3.84741
G1 X110.703 Y145.475 E3.99568
G1 X110.702 Y146.469 E4.02462
G1 X109.525 Y145.789 E4.06419
G1 X109.525 Y139.525 E4.24650
G1 X130.475 Y139.525 E4.85620
G1 X130.475 Y145.789 E5.03851
G1 X129.298 Y146.469 E5.07807
G1 X129.297 Y145.528 E5.10548
M204 S1000
G1 X128.947 Y145.825 F3600.000
M204 S1000
G1 X124.552 Y145.825 E5.23338 F1064.485
G1 X124.552 Y149.613 E5.34362
G1 X122.453 Y150.825 E5.41417
G1 X117.547 Y150.825 E5.55695
G1 X115.448 Y149.613 E5.62749
G1 X115.448 Y145.825 E5.73774
G1 X111.052 Y145.825 E5.86564
G1 X111.052 Y147.075 E5.90203
G1 X109.175 Y145.992 E5.96512
G1 X109.175 Y139.175 E6.16350
G1 X130.825 Y139.175 E6.79357
G1 X130.825 Y145.992 E6.99195
G1 X128.948 Y147.075 E7.05503
G1 X128.947 Y145.878 E7.08989
M204 S1000
G1 X128.947 Y145.475 F3600.000
G1 X117.079 Y144.338 F3600.000
M204 S1000
G1 X116.411 Y145.438 E7.14137 F1900.865
G1 X117.242 Y146.800 E7.20518
G1 X116.411 Y147.631 E7.25217
G1 X117.754 Y149.228 E7.33564
G1 X117.482 Y149.675 E7.35659
M204 S1000
G1 X116.512 Y142.994 F3600.000
M204 S1000
G1 X114.644 Y144.862 E7.46223 F1900.865
G1 X113.115 Y144.862 E7.52339
G1 X115.985 Y140.138 E7.74447
G1 X114.832 Y140.138 E7.79058
G1 X110.138 Y144.832 E8.05612
G1 X110.138 Y143.762 E8.09895
G1 X112.340 Y140.138 E8.26854
G1 X110.297 Y140.138 E8.35025
G1 X110.138 Y140.297 E8.35923
M204 S1000
